; generated by Slic3r 1.3.1-dev (Build adea0d9) on 2020-02-12 at 14:20:05

; external perimeters extrusion width = 0.44mm (2.86mm^3/s)
; perimeters extrusion width = 0.56mm (4.14mm^3/s)
; infill extrusion width = 0.50mm (3.66mm^3/s)
; solid infill extrusion width = 0.56mm (3.10mm^3/s)
; top infill extrusion width = 0.56mm (3.10mm^3/s)

M107
G92 E0
;D3D:START:START
T0
M104 S215 T0

G21
G90
M107
T0
G28
G29
M109 T0 S215 T0
G0 F3000
M107
T0
G92 E0
G0 X0 Y149 Z0.1 F3600
G1 Y49 E6.5 F1200
G0 Z1
G92 E0
; Filament gcode

G21 ; set units to millimeters
G90 ; use absolute coordinates
M82 ; use absolute distances for extrusion
G92 E0
G1 Z0.300 F7800.000
G1 E-2.00000 F2400.00000
G92 E0
G1 X84.480 Y69.696 F7800.000
G1 E2.00000 F2400.00000
G1 F1800.000
G1 X80.797 Y69.696 E2.12201
G1 X80.376 Y69.275 E2.14174
G1 X80.006 Y68.949 E2.15808
G1 X79.616 Y68.646 E2.17443
G1 X79.208 Y68.369 E2.19077
G1 X78.783 Y68.118 E2.20712
G1 X78.344 Y67.894 E2.22346
G1 X77.891 Y67.698 E2.23981
G1 X77.427 Y67.531 E2.25615
G1 X76.953 Y67.393 E2.27250
G1 X76.472 Y67.286 E2.28884
G1 X75.984 Y67.209 E2.30519
G1 X75.493 Y67.162 E2.32153
G1 X75.000 Y67.147 E2.33788
G1 X74.507 Y67.162 E2.35422
G1 X74.016 Y67.209 E2.37057
G1 X73.528 Y67.286 E2.38691
G1 X73.047 Y67.393 E2.40326
G1 X72.573 Y67.531 E2.41960
G1 X72.109 Y67.698 E2.43595
G1 X71.656 Y67.894 E2.45229
G1 X71.217 Y68.118 E2.46864
G1 X70.792 Y68.369 E2.48498
G1 X70.384 Y68.646 E2.50133
G1 X69.994 Y68.949 E2.51767
G1 X69.624 Y69.275 E2.53402
G1 X69.275 Y69.624 E2.55036
G1 X68.949 Y69.994 E2.56670
G1 X68.646 Y70.384 E2.58305
G1 X68.369 Y70.792 E2.59939
G1 X68.118 Y71.217 E2.61574
G1 X67.894 Y71.656 E2.63208
G1 X67.698 Y72.109 E2.64843
G1 X67.531 Y72.573 E2.66477
G1 X67.393 Y73.047 E2.68112
G1 X67.280 Y73.554 E2.69832
G1 X67.902 Y73.554 E2.71892
G1 X67.981 Y73.198 E2.73100
G1 X68.108 Y72.761 E2.74608
G1 X68.262 Y72.332 E2.76116
G1 X68.443 Y71.915 E2.77624
G1 X68.650 Y71.509 E2.79133
G1 X68.882 Y71.117 E2.80641
G1 X69.137 Y70.741 E2.82149
G1 X69.416 Y70.381 E2.83657
G1 X69.717 Y70.039 E2.85165
G1 X70.039 Y69.717 E2.86673
G1 X70.381 Y69.416 E2.88182
G1 X70.741 Y69.137 E2.89690
G1 X71.117 Y68.882 E2.91198
G1 X71.509 Y68.650 E2.92706
G1 X71.915 Y68.443 E2.94214
G1 X72.332 Y68.262 E2.95723
G1 X72.761 Y68.108 E2.97231
G1 X73.198 Y67.981 E2.98739
G1 X73.642 Y67.882 E3.00247
G1 X74.092 Y67.811 E3.01755
G1 X74.545 Y67.768 E3.03264
G1 X75.000 Y67.753 E3.04772
G1 X75.455 Y67.768 E3.06280
G1 X75.908 Y67.811 E3.07788
G1 X76.358 Y67.882 E3.09296
G1 X76.802 Y67.981 E3.10805
G1 X77.239 Y68.108 E3.12313
G1 X77.668 Y68.262 E3.13821
G1 X78.085 Y68.443 E3.15329
G1 X78.491 Y68.650 E3.16837
G1 X78.883 Y68.882 E3.18346
G1 X79.259 Y69.137 E3.19854
G1 X79.619 Y69.416 E3.21362
G1 X79.961 Y69.717 E3.22870
G1 X80.283 Y70.039 E3.24378
G1 X80.584 Y70.381 E3.25886
G1 X80.863 Y70.741 E3.27395
G1 X81.118 Y71.117 E3.28903
G1 X81.350 Y71.509 E3.30411
G1 X81.557 Y71.915 E3.31919
G1 X81.738 Y72.332 E3.33427
G1 X81.892 Y72.761 E3.34936
G1 X82.019 Y73.198 E3.36444
G1 X82.118 Y73.642 E3.37952
G1 X82.189 Y74.092 E3.39460
G1 X82.232 Y74.545 E3.40968
G1 X82.247 Y75.000 E3.42477
G1 X82.232 Y75.455 E3.43985
G1 X82.189 Y75.908 E3.45493
G1 X82.118 Y76.358 E3.47001
G1 X82.019 Y76.802 E3.48509
G1 X81.892 Y77.239 E3.50018
G1 X81.738 Y77.668 E3.51526
G1 X81.557 Y78.085 E3.53034
G1 X81.350 Y78.491 E3.54542
G1 X81.118 Y78.883 E3.56050
G1 X80.863 Y79.259 E3.57559
G1 X80.584 Y79.619 E3.59067
G1 X80.283 Y79.961 E3.60575
G1 X79.961 Y80.283 E3.62083
G1 X79.619 Y80.584 E3.63591
G1 X79.259 Y80.863 E3.65099
G1 X78.883 Y81.118 E3.66608
G1 X78.491 Y81.350 E3.68116
G1 X78.085 Y81.557 E3.69624
G1 X77.668 Y81.738 E3.71132
G1 X77.239 Y81.892 E3.72640
G1 X76.802 Y82.019 E3.74149
G1 X76.358 Y82.118 E3.75657
G1 X75.908 Y82.189 E3.77165
G1 X75.455 Y82.232 E3.78673
G1 X75.000 Y82.247 E3.80181
G1 X74.545 Y82.232 E3.81690
G1 X74.092 Y82.189 E3.83198
G1 X73.642 Y82.118 E3.84706
G1 X73.198 Y82.019 E3.86214
G1 X72.761 Y81.892 E3.87722
G1 X72.332 Y81.738 E3.89231
G1 X71.915 Y81.557 E3.90739
G1 X71.509 Y81.350 E3.92247
G1 X71.117 Y81.118 E3.93755
G1 X70.741 Y80.863 E3.95263
G1 X70.381 Y80.584 E3.96772
G1 X70.039 Y80.283 E3.98280
G1 X69.717 Y79.961 E3.99788
G1 X69.416 Y79.619 E4.01296
G1 X69.137 Y79.259 E4.02804
G1 X68.882 Y78.883 E4.04312
G1 X68.650 Y78.491 E4.05821
G1 X68.443 Y78.085 E4.07329
G1 X68.262 Y77.668 E4.08837
G1 X68.108 Y77.239 E4.10345
G1 X67.981 Y76.802 E4.11853
G1 X67.902 Y76.446 E4.13062
G1 X67.280 Y76.446 E4.15121
G1 X67.393 Y76.953 E4.16841
G1 X67.531 Y77.427 E4.18476
G1 X67.698 Y77.891 E4.20110
G1 X67.894 Y78.344 E4.21745
G1 X68.118 Y78.783 E4.23379
G1 X68.369 Y79.208 E4.25014
G1 X68.646 Y79.616 E4.26648
G1 X68.949 Y80.006 E4.28283
G1 X69.275 Y80.376 E4.29917
G1 X69.624 Y80.725 E4.31552
G1 X69.994 Y81.051 E4.33186
G1 X70.384 Y81.354 E4.34821
G1 X70.792 Y81.631 E4.36455
G1 X71.217 Y81.882 E4.38090
G1 X71.656 Y82.106 E4.39724
G1 X72.109 Y82.302 E4.41359
G1 X72.573 Y82.469 E4.42993
G1 X73.047 Y82.607 E4.44628
G1 X73.528 Y82.714 E4.46262
G1 X74.016 Y82.791 E4.47897
G1 X74.507 Y82.838 E4.49531
G1 X75.000 Y82.853 E4.51166
G1 X75.493 Y82.838 E4.52800
G1 X75.984 Y82.791 E4.54435
G1 X76.472 Y82.714 E4.56069
G1 X76.953 Y82.607 E4.57704
G1 X77.427 Y82.469 E4.59338
G1 X77.891 Y82.302 E4.60972
G1 X78.344 Y82.106 E4.62607
G1 X78.783 Y81.882 E4.64241
G1 X79.208 Y81.631 E4.65876
G1 X79.616 Y81.354 E4.67510
G1 X80.006 Y81.051 E4.69145
G1 X80.376 Y80.725 E4.70779
G1 X80.797 Y80.304 E4.72753
G1 X84.480 Y80.304 E4.84953
G1 X83.280 Y81.850 E4.91437
G1 X82.834 Y82.357 E4.93673
G1 X82.357 Y82.834 E4.95910
G1 X81.850 Y83.280 E4.98147
G1 X81.317 Y83.694 E5.00383
G1 X80.758 Y84.074 E5.02620
G1 X80.177 Y84.417 E5.04857
G1 X79.576 Y84.724 E5.07093
G1 X78.956 Y84.992 E5.09330
G1 X78.321 Y85.221 E5.11566
G1 X77.673 Y85.409 E5.13803
G1 X77.014 Y85.556 E5.16040
G1 X76.347 Y85.662 E5.18276
G1 X75.675 Y85.725 E5.20513
G1 X75.000 Y85.747 E5.22750
G1 X74.325 Y85.725 E5.24986
G1 X73.653 Y85.662 E5.27223
G1 X72.986 Y85.556 E5.29459
G1 X72.327 Y85.409 E5.31696
G1 X71.679 Y85.221 E5.33933
G1 X71.044 Y84.992 E5.36169
G1 X70.424 Y84.724 E5.38406
G1 X69.823 Y84.417 E5.40643
G1 X69.242 Y84.074 E5.42879
G1 X68.683 Y83.694 E5.45116
G1 X68.150 Y83.280 E5.47353
G1 X67.643 Y82.834 E5.49589
G1 X67.166 Y82.357 E5.51826
G1 X66.720 Y81.850 E5.54062
G1 X66.306 Y81.317 E5.56299
G1 X65.926 Y80.758 E5.58536
G1 X65.583 Y80.177 E5.60772
G1 X65.276 Y79.576 E5.63009
G1 X65.008 Y78.956 E5.65246
G1 X64.779 Y78.321 E5.67482
G1 X64.591 Y77.673 E5.69719
G1 X64.444 Y77.014 E5.71955
G1 X64.338 Y76.347 E5.74192
G1 X64.275 Y75.675 E5.76429
G1 X64.253 Y75.000 E5.78665
G1 X64.275 Y74.325 E5.80902
G1 X64.338 Y73.653 E5.83139
G1 X64.444 Y72.986 E5.85375
G1 X64.591 Y72.327 E5.87612
G1 X64.779 Y71.679 E5.89849
G1 X65.008 Y71.044 E5.92085
G1 X65.276 Y70.424 E5.94322
G1 X65.583 Y69.823 E5.96558
G1 X65.926 Y69.242 E5.98795
G1 X66.306 Y68.683 E6.01032
G1 X66.720 Y68.150 E6.03268
G1 X67.166 Y67.643 E6.05505
G1 X67.643 Y67.166 E6.07742
G1 X68.150 Y66.720 E6.09978
G1 X68.683 Y66.306 E6.12215
G1 X69.242 Y65.926 E6.14451
G1 X69.823 Y65.583 E6.16688
G1 X70.424 Y65.276 E6.18925
G1 X71.044 Y65.008 E6.21161
G1 X71.679 Y64.779 E6.23398
G1 X72.327 Y64.591 E6.25635
G1 X72.986 Y64.444 E6.27871
G1 X73.653 Y64.338 E6.30108
G1 X74.325 Y64.275 E6.32344
G1 X75.000 Y64.253 E6.34581
G1 X75.675 Y64.275 E6.36818
G1 X76.347 Y64.338 E6.39054
G1 X77.014 Y64.444 E6.41291
G1 X77.673 Y64.591 E6.43528
G1 X78.321 Y64.779 E6.45764
G1 X78.956 Y65.008 E6.48001
G1 X79.576 Y65.276 E6.50237
G1 X80.177 Y65.583 E6.52474
G1 X80.758 Y65.926 E6.54711
G1 X81.317 Y66.306 E6.56947
G1 X81.850 Y66.720 E6.59184
G1 X82.357 Y67.166 E6.61421
G1 X82.834 Y67.643 E6.63657
G1 X83.280 Y68.150 E6.65894
G1 X84.443 Y69.649 E6.72179
G1 X83.938 Y69.431 F7800.000
G1 F1800.000
G1 X80.907 Y69.431 E6.82219
G1 X80.558 Y69.081 E6.83855
G1 X80.175 Y68.744 E6.85545
G1 X79.772 Y68.431 E6.87234
G1 X79.350 Y68.145 E6.88924
G1 X78.911 Y67.885 E6.90614
G1 X78.457 Y67.654 E6.92304
G1 X77.989 Y67.451 E6.93994
G1 X77.509 Y67.278 E6.95683
G1 X77.019 Y67.136 E6.97373
G1 X76.521 Y67.025 E6.99063
G1 X76.018 Y66.945 E7.00753
G1 X75.510 Y66.897 E7.02443
G1 X75.000 Y66.881 E7.04132
G1 X74.490 Y66.897 E7.05822
G1 X73.982 Y66.945 E7.07512
G1 X73.479 Y67.025 E7.09202
G1 X72.981 Y67.136 E7.10892
G1 X72.491 Y67.278 E7.12581
G1 X72.011 Y67.451 E7.14271
G1 X71.543 Y67.654 E7.15961
G1 X71.089 Y67.885 E7.17651
G1 X70.650 Y68.145 E7.19341
G1 X70.228 Y68.431 E7.21030
G1 X69.825 Y68.744 E7.22720
G1 X69.442 Y69.081 E7.24410
G1 X69.081 Y69.442 E7.26100
G1 X68.744 Y69.825 E7.27790
G1 X68.431 Y70.228 E7.29479
G1 X68.145 Y70.650 E7.31169
G1 X67.885 Y71.089 E7.32859
G1 X67.654 Y71.543 E7.34549
G1 X67.451 Y72.011 E7.36239
G1 X67.278 Y72.491 E7.37928
G1 X67.136 Y72.981 E7.39618
G1 X67.025 Y73.479 E7.41308
G1 X66.971 Y73.819 E7.42451
G1 X68.124 Y73.819 E7.46271
G1 X68.238 Y73.264 E7.48150
G1 X68.361 Y72.843 E7.49603
G1 X68.509 Y72.430 E7.51056
G1 X68.684 Y72.028 E7.52509
G1 X68.883 Y71.637 E7.53962
G1 X69.106 Y71.259 E7.55414
G1 X69.352 Y70.897 E7.56867
G1 X69.621 Y70.550 E7.58320
G1 X69.911 Y70.221 E7.59773
G1 X70.221 Y69.911 E7.61226
G1 X70.550 Y69.621 E7.62679
G1 X70.897 Y69.352 E7.64132
G1 X71.259 Y69.106 E7.65585
G1 X71.637 Y68.883 E7.67037
G1 X72.028 Y68.684 E7.68490
G1 X72.430 Y68.509 E7.69943
G1 X72.843 Y68.361 E7.71396
G1 X73.264 Y68.238 E7.72849
G1 X73.692 Y68.143 E7.74302
G1 X74.125 Y68.074 E7.75755
G1 X74.562 Y68.033 E7.77208
G1 X75.000 Y68.019 E7.78661
G1 X75.438 Y68.033 E7.80113
G1 X75.875 Y68.074 E7.81566
G1 X76.308 Y68.143 E7.83019
G1 X76.736 Y68.238 E7.84472
G1 X77.157 Y68.361 E7.85925
G1 X77.570 Y68.509 E7.87378
G1 X77.972 Y68.684 E7.88831
G1 X78.363 Y68.883 E7.90284
G1 X78.741 Y69.106 E7.91737
G1 X79.103 Y69.352 E7.93189
G1 X79.450 Y69.621 E7.94642
G1 X79.779 Y69.911 E7.96095
G1 X80.089 Y70.221 E7.97548
G1 X80.379 Y70.550 E7.99001
G1 X80.648 Y70.897 E8.00454
G1 X80.894 Y71.259 E8.01907
G1 X81.117 Y71.637 E8.03360
G1 X81.316 Y72.028 E8.04812
G1 X81.491 Y72.430 E8.06265
G1 X81.639 Y72.843 E8.07718
G1 X81.762 Y73.264 E8.09171
G1 X81.857 Y73.692 E8.10624
G1 X81.926 Y74.125 E8.12077
G1 X81.967 Y74.562 E8.13530
G1 X81.981 Y75.000 E8.14983
G1 X81.967 Y75.438 E8.16436
G1 X81.926 Y75.875 E8.17888
G1 X81.857 Y76.308 E8.19341
G1 X81.762 Y76.736 E8.20794
G1 X81.639 Y77.157 E8.22247
G1 X81.491 Y77.570 E8.23700
G1 X81.316 Y77.972 E8.25153
G1 X81.117 Y78.363 E8.26606
G1 X80.894 Y78.741 E8.28059
G1 X80.648 Y79.103 E8.29511
G1 X80.379 Y79.450 E8.30964
G1 X80.089 Y79.779 E8.32417
G1 X79.779 Y80.089 E8.33870
G1 X79.450 Y80.379 E8.35323
G1 X79.103 Y80.648 E8.36776
G1 X78.741 Y80.894 E8.38229
G1 X78.363 Y81.117 E8.39682
G1 X77.972 Y81.316 E8.41135
G1 X77.570 Y81.491 E8.42587
G1 X77.157 Y81.639 E8.44040
G1 X76.736 Y81.762 E8.45493
G1 X76.308 Y81.857 E8.46946
G1 X75.875 Y81.926 E8.48399
G1 X75.438 Y81.967 E8.49852
G1 X75.000 Y81.981 E8.51305
G1 X74.562 Y81.967 E8.52758
G1 X74.125 Y81.926 E8.54211
G1 X73.692 Y81.857 E8.55663
G1 X73.264 Y81.762 E8.57116
G1 X72.843 Y81.639 E8.58569
G1 X72.430 Y81.491 E8.60022
G1 X72.028 Y81.316 E8.61475
G1 X71.637 Y81.117 E8.62928
G1 X71.259 Y80.894 E8.64381
G1 X70.897 Y80.648 E8.65834
G1 X70.550 Y80.379 E8.67286
G1 X70.221 Y80.089 E8.68739
G1 X69.911 Y79.779 E8.70192
G1 X69.621 Y79.450 E8.71645
G1 X69.352 Y79.103 E8.73098
G1 X69.106 Y78.741 E8.74551
G1 X68.883 Y78.363 E8.76004
G1 X68.684 Y77.972 E8.77457
G1 X68.509 Y77.570 E8.78910
G1 X68.361 Y77.157 E8.80362
G1 X68.238 Y76.736 E8.81815
G1 X68.124 Y76.181 E8.83694
G1 X66.971 Y76.181 E8.87514
G1 X67.025 Y76.521 E8.88657
G1 X67.136 Y77.019 E8.90347
G1 X67.278 Y77.509 E8.92037
G1 X67.451 Y77.989 E8.93727
G1 X67.654 Y78.457 E8.95416
G1 X67.885 Y78.911 E8.97106
G1 X68.145 Y79.350 E8.98796
G1 X68.431 Y79.772 E9.00486
G1 X68.744 Y80.175 E9.02176
G1 X69.081 Y80.558 E9.03865
G1 X69.442 Y80.919 E9.05555
G1 X69.825 Y81.256 E9.07245
G1 X70.228 Y81.569 E9.08935
G1 X70.650 Y81.855 E9.10625
G1 X71.089 Y82.115 E9.12314
G1 X71.543 Y82.346 E9.14004
G1 X72.011 Y82.549 E9.15694
G1 X72.491 Y82.722 E9.17384
G1 X72.981 Y82.864 E9.19074
G1 X73.479 Y82.975 E9.20763
G1 X73.982 Y83.055 E9.22453
G1 X74.490 Y83.103 E9.24143
G1 X75.000 Y83.119 E9.25833
G1 X75.510 Y83.103 E9.27523
G1 X76.018 Y83.055 E9.29212
G1 X76.521 Y82.975 E9.30902
G1 X77.019 Y82.864 E9.32592
G1 X77.509 Y82.722 E9.34282
G1 X77.989 Y82.549 E9.35972
G1 X78.457 Y82.346 E9.37661
G1 X78.911 Y82.115 E9.39351
G1 X79.350 Y81.855 E9.41041
G1 X79.772 Y81.569 E9.42731
G1 X80.175 Y81.256 E9.44421
G1 X80.558 Y80.919 E9.46110
G1 X80.907 Y80.569 E9.47747
G1 X83.938 Y80.569 E9.57787
G1 X83.076 Y81.681 E9.62446
G1 X82.640 Y82.175 E9.64628
G1 X82.175 Y82.640 E9.66809
G1 X81.681 Y83.076 E9.68990
G1 X81.160 Y83.479 E9.71172
G1 X80.616 Y83.849 E9.73353
G1 X80.049 Y84.184 E9.75534
G1 X79.463 Y84.483 E9.77715
G1 X78.858 Y84.745 E9.79897
G1 X78.239 Y84.968 E9.82078
G1 X77.606 Y85.152 E9.84259
G1 X76.964 Y85.295 E9.86441
G1 X76.314 Y85.398 E9.88622
G1 X75.658 Y85.460 E9.90803
G1 X75.000 Y85.481 E9.92985
G1 X74.342 Y85.460 E9.95166
G1 X73.686 Y85.398 E9.97347
G1 X73.036 Y85.295 E9.99529
G1 X72.394 Y85.152 E10.01710
G1 X71.761 Y84.968 E10.03891
G1 X71.142 Y84.745 E10.06073
G1 X70.537 Y84.483 E10.08254
G1 X69.951 Y84.184 E10.10435
G1 X69.384 Y83.849 E10.12617
G1 X68.840 Y83.479 E10.14798
G1 X68.319 Y83.076 E10.16979
G1 X67.825 Y82.640 E10.19161
G1 X67.360 Y82.175 E10.21342
G1 X66.924 Y81.681 E10.23523
G1 X66.521 Y81.160 E10.25705
G1 X66.151 Y80.616 E10.27886
G1 X65.816 Y80.049 E10.30067
G1 X65.517 Y79.463 E10.32248
G1 X65.255 Y78.858 E10.34430
G1 X65.032 Y78.239 E10.36611
G1 X64.848 Y77.606 E10.38792
G1 X64.705 Y76.964 E10.40974
G1 X64.602 Y76.314 E10.43155
G1 X64.540 Y75.658 E10.45336
G1 X64.519 Y75.000 E10.47518
G1 X64.540 Y74.342 E10.49699
G1 X64.602 Y73.686 E10.51880
G1 X64.705 Y73.036 E10.54062
G1 X64.848 Y72.394 E10.56243
G1 X65.032 Y71.761 E10.58424
G1 X65.255 Y71.142 E10.60606
G1 X65.517 Y70.537 E10.62787
G1 X65.816 Y69.951 E10.64968
G1 X66.151 Y69.384 E10.67150
G1 X66.521 Y68.840 E10.69331
G1 X66.924 Y68.319 E10.71512
G1 X67.360 Y67.825 E10.73694
G1 X67.825 Y67.360 E10.75875
G1 X68.319 Y66.924 E10.78056
G1 X68.840 Y66.521 E10.80238
G1 X69.384 Y66.151 E10.82419
G1 X69.951 Y65.816 E10.84600
G1 X70.537 Y65.517 E10.86781
G1 X71.142 Y65.255 E10.88963
G1 X71.761 Y65.032 E10.91144
G1 X72.394 Y64.848 E10.93325
G1 X73.036 Y64.705 E10.95507
G1 X73.686 Y64.602 E10.97688
G1 X74.342 Y64.540 E10.99869
G1 X75.000 Y64.519 E11.02051
G1 X75.658 Y64.540 E11.04232
G1 X76.314 Y64.602 E11.06413
G1 X76.964 Y64.705 E11.08595
G1 X77.606 Y64.848 E11.10776
G1 X78.239 Y65.032 E11.12957
G1 X78.858 Y65.255 E11.15139
G1 X79.463 Y65.517 E11.17320
G1 X80.049 Y65.816 E11.19501
G1 X80.616 Y66.151 E11.21683
G1 X81.160 Y66.521 E11.23864
G1 X81.681 Y66.924 E11.26045
G1 X82.175 Y67.360 E11.28227
G1 X82.640 Y67.825 E11.30408
G1 X83.076 Y68.319 E11.32589
G1 X83.901 Y69.383 E11.37050
G1 X83.395 Y69.165 F7800.000
G1 F1800.000
G1 X81.017 Y69.165 E11.44929
G1 X80.740 Y68.888 E11.46229
G1 X80.345 Y68.539 E11.47974
G1 X79.929 Y68.216 E11.49719
G1 X79.493 Y67.920 E11.51464
G1 X79.039 Y67.652 E11.53209
G1 X78.570 Y67.413 E11.54954
G1 X78.087 Y67.204 E11.56699
G1 X77.591 Y67.025 E11.58444
G1 X77.085 Y66.879 E11.60189
G1 X76.571 Y66.764 E11.61935
G1 X76.051 Y66.681 E11.63680
G1 X75.526 Y66.632 E11.65425
G1 X75.000 Y66.615 E11.67170
G1 X74.474 Y66.632 E11.68915
G1 X73.949 Y66.681 E11.70660
G1 X73.429 Y66.764 E11.72405
G1 X72.915 Y66.879 E11.74150
G1 X72.409 Y67.025 E11.75895
G1 X71.913 Y67.204 E11.77641
G1 X71.430 Y67.413 E11.79386
G1 X70.961 Y67.652 E11.81131
G1 X70.507 Y67.920 E11.82876
G1 X70.071 Y68.216 E11.84621
G1 X69.655 Y68.539 E11.86366
G1 X69.260 Y68.888 E11.88111
G1 X68.888 Y69.260 E11.89856
G1 X68.539 Y69.655 E11.91601
G1 X68.216 Y70.071 E11.93347
G1 X67.920 Y70.507 E11.95092
G1 X67.652 Y70.961 E11.96837
G1 X67.413 Y71.430 E11.98582
G1 X67.204 Y71.913 E12.00327
G1 X67.025 Y72.409 E12.02072
G1 X66.879 Y72.915 E12.03817
G1 X66.764 Y73.429 E12.05562
G1 X66.668 Y74.085 E12.07759
G1 X68.353 Y74.085 E12.13339
G1 X68.404 Y73.742 E12.14486
G1 X68.496 Y73.330 E12.15887
