; generated by Slic3r 1.3.1-dev (Build 6eeea77) on 2020-06-12 at 20:10:05

; external perimeters extrusion width = 0.44mm (2.86mm^3/s)
; perimeters extrusion width = 0.56mm (4.14mm^3/s)
; infill extrusion width = 0.50mm (3.66mm^3/s)
; solid infill extrusion width = 0.56mm (3.10mm^3/s)
; top infill extrusion width = 0.45mm (2.44mm^3/s)

M107
G92 E0
;D3D:START:START
T0
M104 S215 T0

G21
G90
M107
T0
G28
G29
M109 T0 S215 T0
G0 F3000
M107
T0
G92 E0
G0 X0 Y149 Z0.1 F3600
G1 Y49 E6.5 F1200
G0 Z1
G92 E0
; Filament gcode

G21 ; set units to millimeters
G90 ; use absolute coordinates
M82 ; use absolute distances for extrusion
G92 E0
G1 Z0.200 F6000.000
G1 E-2.00000 F1200.00000
G92 E0
G1 Z0.700 F6000.000
G1 X85.414 Y68.914 F6000.000
G1 Z0.200 F6000.000
G1 E2.00000 F1200.00000
G1 F1800.000
G1 X85.414 Y61.414 E2.20487
G1 X90.586 Y61.414 E2.34614
G1 X90.586 Y88.586 E3.08836
G1 X85.414 Y88.586 E3.22963
G1 X85.414 Y81.086 E3.43450
G1 X72.840 Y81.086 E3.77799
G1 X72.252 Y81.541 E3.79828
G1 X71.832 Y81.827 E3.81216
G1 X71.395 Y82.085 E3.82603
G1 X70.943 Y82.316 E3.83991
G1 X70.476 Y82.518 E3.85378
G1 X69.999 Y82.690 E3.86766
G1 X69.511 Y82.831 E3.88153
G1 X69.015 Y82.942 E3.89541
G1 X68.513 Y83.022 E3.90928
G1 X68.008 Y83.069 E3.92316
G1 X67.500 Y83.085 E3.93703
G1 X66.992 Y83.069 E3.95091
G1 X66.487 Y83.022 E3.96478
G1 X65.985 Y82.942 E3.97866
G1 X65.489 Y82.831 E3.99253
G1 X65.001 Y82.690 E4.00641
G1 X64.524 Y82.518 E4.02028
G1 X64.057 Y82.316 E4.03416
G1 X63.605 Y82.085 E4.04803
G1 X63.168 Y81.827 E4.06190
G1 X62.748 Y81.541 E4.07578
G1 X62.346 Y81.230 E4.08965
G1 X61.965 Y80.894 E4.10353
G1 X61.606 Y80.535 E4.11740
G1 X61.270 Y80.154 E4.13128
G1 X60.959 Y79.752 E4.14515
G1 X60.673 Y79.332 E4.15903
G1 X60.415 Y78.895 E4.17290
G1 X60.184 Y78.443 E4.18678
G1 X59.982 Y77.976 E4.20065
G1 X59.810 Y77.499 E4.21453
G1 X59.669 Y77.011 E4.22840
G1 X59.558 Y76.515 E4.24228
G1 X59.478 Y76.013 E4.25615
G1 X59.431 Y75.508 E4.27003
G1 X59.415 Y75.000 E4.28390
G1 X59.431 Y74.492 E4.29778
G1 X59.478 Y73.987 E4.31165
G1 X59.558 Y73.485 E4.32553
G1 X59.669 Y72.989 E4.33940
G1 X59.810 Y72.501 E4.35328
G1 X59.982 Y72.024 E4.36715
G1 X60.184 Y71.557 E4.38102
G1 X60.415 Y71.105 E4.39490
G1 X60.673 Y70.668 E4.40877
G1 X60.959 Y70.248 E4.42265
G1 X61.270 Y69.846 E4.43652
G1 X61.606 Y69.465 E4.45040
G1 X61.965 Y69.106 E4.46427
G1 X62.346 Y68.770 E4.47815
G1 X62.748 Y68.459 E4.49202
G1 X63.168 Y68.173 E4.50590
G1 X63.605 Y67.915 E4.51977
G1 X64.057 Y67.684 E4.53365
G1 X64.524 Y67.482 E4.54752
G1 X65.001 Y67.310 E4.56140
G1 X65.489 Y67.169 E4.57527
G1 X65.985 Y67.058 E4.58915
G1 X66.487 Y66.978 E4.60302
G1 X66.992 Y66.931 E4.61690
G1 X67.500 Y66.915 E4.63077
G1 X68.008 Y66.931 E4.64465
G1 X68.513 Y66.978 E4.65852
G1 X69.015 Y67.058 E4.67240
G1 X69.511 Y67.169 E4.68627
G1 X69.999 Y67.310 E4.70015
G1 X70.476 Y67.482 E4.71402
G1 X70.943 Y67.684 E4.72789
G1 X71.395 Y67.915 E4.74177
G1 X71.832 Y68.173 E4.75564
G1 X72.253 Y68.460 E4.76955
G1 X72.840 Y68.914 E4.78981
G1 X85.354 Y68.914 E5.13166
G1 X85.057 Y68.557 F6000.000
G1 F1800.000
G1 X85.057 Y61.057 E5.33653
G1 X90.943 Y61.057 E5.49731
G1 X90.943 Y88.943 E6.25904
G1 X85.057 Y88.943 E6.41982
G1 X85.057 Y81.443 E6.62469
G1 X72.962 Y81.443 E6.95508
G1 X72.462 Y81.830 E6.97234
G1 X72.024 Y82.128 E6.98683
G1 X71.567 Y82.398 E7.00132
G1 X71.095 Y82.639 E7.01581
G1 X70.608 Y82.850 E7.03030
G1 X70.109 Y83.029 E7.04478
G1 X69.600 Y83.177 E7.05927
G1 X69.082 Y83.293 E7.07376
G1 X68.558 Y83.376 E7.08825
G1 X68.030 Y83.426 E7.10274
G1 X67.500 Y83.443 E7.11722
G1 X66.970 Y83.426 E7.13171
G1 X66.442 Y83.376 E7.14620
G1 X65.918 Y83.293 E7.16069
G1 X65.400 Y83.177 E7.17517
G1 X64.891 Y83.029 E7.18966
G1 X64.392 Y82.850 E7.20415
G1 X63.905 Y82.639 E7.21864
G1 X63.433 Y82.398 E7.23313
G1 X62.976 Y82.128 E7.24761
G1 X62.538 Y81.830 E7.26210
G1 X62.118 Y81.505 E7.27659
G1 X61.721 Y81.154 E7.29108
G1 X61.346 Y80.779 E7.30557
G1 X60.995 Y80.382 E7.32005
G1 X60.670 Y79.962 E7.33454
G1 X60.372 Y79.524 E7.34903
G1 X60.102 Y79.067 E7.36352
G1 X59.861 Y78.595 E7.37800
G1 X59.650 Y78.108 E7.39249
G1 X59.471 Y77.609 E7.40698
G1 X59.323 Y77.100 E7.42147
G1 X59.207 Y76.582 E7.43596
G1 X59.124 Y76.058 E7.45044
G1 X59.074 Y75.530 E7.46493
G1 X59.057 Y75.000 E7.47942
G1 X59.074 Y74.470 E7.49391
G1 X59.124 Y73.942 E7.50840
G1 X59.207 Y73.418 E7.52288
G1 X59.323 Y72.900 E7.53737
G1 X59.471 Y72.391 E7.55186
G1 X59.650 Y71.892 E7.56635
G1 X59.861 Y71.405 E7.58083
G1 X60.102 Y70.933 E7.59532
G1 X60.372 Y70.476 E7.60981
G1 X60.670 Y70.038 E7.62430
G1 X60.995 Y69.618 E7.63879
G1 X61.346 Y69.221 E7.65327
G1 X61.721 Y68.846 E7.66776
G1 X62.118 Y68.495 E7.68225
G1 X62.538 Y68.170 E7.69674
G1 X62.976 Y67.872 E7.71122
G1 X63.433 Y67.602 E7.72571
G1 X63.905 Y67.361 E7.74020
G1 X64.392 Y67.150 E7.75469
G1 X64.891 Y66.971 E7.76918
G1 X65.400 Y66.823 E7.78366
G1 X65.918 Y66.707 E7.79815
G1 X66.442 Y66.624 E7.81264
G1 X66.970 Y66.574 E7.82713
G1 X67.500 Y66.557 E7.84162
G1 X68.030 Y66.574 E7.85610
G1 X68.558 Y66.624 E7.87059
G1 X69.082 Y66.707 E7.88508
G1 X69.600 Y66.823 E7.89957
G1 X70.109 Y66.971 E7.91405
G1 X70.608 Y67.150 E7.92854
G1 X71.095 Y67.361 E7.94303
G1 X71.567 Y67.602 E7.95752
G1 X72.024 Y67.872 E7.97201
G1 X72.463 Y68.171 E7.98653
G1 X72.962 Y68.557 E8.00376
G1 X84.997 Y68.557 E8.33251
G1 X84.700 Y68.200 F6000.000
G1 F1800.000
G1 X84.700 Y60.700 E8.53738
G1 X91.300 Y60.700 E8.71767
G1 X91.300 Y89.300 E9.49890
G1 X84.700 Y89.300 E9.67919
G1 X84.700 Y81.800 E9.88406
G1 X73.084 Y81.800 E10.20136
G1 X72.672 Y82.119 E10.21559
G1 X72.215 Y82.430 E10.23069
G1 X71.739 Y82.711 E10.24579
G1 X71.247 Y82.962 E10.26089
G1 X70.739 Y83.182 E10.27599
G1 X70.219 Y83.369 E10.29110
G1 X69.688 Y83.523 E10.30620
G1 X69.149 Y83.644 E10.32130
G1 X68.603 Y83.731 E10.33640
G1 X68.053 Y83.783 E10.35150
G1 X67.500 Y83.800 E10.36660
G1 X66.947 Y83.783 E10.38170
G1 X66.397 Y83.731 E10.39680
G1 X65.851 Y83.644 E10.41190
G1 X65.312 Y83.523 E10.42700
G1 X64.781 Y83.369 E10.44210
G1 X64.261 Y83.182 E10.45720
G1 X63.753 Y82.962 E10.47231
G1 X63.261 Y82.711 E10.48741
G1 X62.785 Y82.430 E10.50251
G1 X62.328 Y82.119 E10.51761
G1 X61.891 Y81.780 E10.53271
G1 X61.476 Y81.415 E10.54781
G1 X61.085 Y81.024 E10.56291
G1 X60.720 Y80.609 E10.57801
G1 X60.381 Y80.172 E10.59311
G1 X60.070 Y79.715 E10.60821
G1 X59.789 Y79.239 E10.62332
G1 X59.538 Y78.747 E10.63842
G1 X59.318 Y78.239 E10.65352
G1 X59.131 Y77.719 E10.66862
G1 X58.977 Y77.188 E10.68372
G1 X58.856 Y76.649 E10.69882
G1 X58.769 Y76.103 E10.71392
G1 X58.717 Y75.553 E10.72902
G1 X58.700 Y75.000 E10.74412
G1 X58.717 Y74.447 E10.75922
G1 X58.769 Y73.897 E10.77432
G1 X58.856 Y73.351 E10.78943
G1 X58.977 Y72.812 E10.80453
G1 X59.131 Y72.281 E10.81963
G1 X59.318 Y71.761 E10.83473
G1 X59.538 Y71.253 E10.84983
G1 X59.789 Y70.761 E10.86493
G1 X60.070 Y70.285 E10.88003
G1 X60.381 Y69.828 E10.89513
G1 X60.720 Y69.391 E10.91023
G1 X61.085 Y68.976 E10.92533
G1 X61.476 Y68.585 E10.94043
G1 X61.891 Y68.220 E10.95553
G1 X62.328 Y67.881 E10.97064
G1 X62.785 Y67.570 E10.98574
G1 X63.261 Y67.289 E11.00084
G1 X63.753 Y67.038 E11.01594
G1 X64.261 Y66.818 E11.03104
G1 X64.781 Y66.631 E11.04614
G1 X65.312 Y66.477 E11.06124
G1 X65.851 Y66.356 E11.07634
G1 X66.397 Y66.269 E11.09144
G1 X66.947 Y66.217 E11.10654
G1 X67.500 Y66.200 E11.12165
G1 X68.053 Y66.217 E11.13675
G1 X68.603 Y66.269 E11.15185
G1 X69.149 Y66.356 E11.16695
G1 X69.688 Y66.477 E11.18205
G1 X70.219 Y66.631 E11.19715
G1 X70.739 Y66.818 E11.21225
G1 X71.247 Y67.038 E11.22735
G1 X71.739 Y67.289 E11.24245
G1 X72.215 Y67.570 E11.25755
G1 X72.673 Y67.882 E11.27269
G1 X73.084 Y68.200 E11.28688
G1 X84.640 Y68.200 E11.60255
G1 X85.100 Y68.204 F6000.000
G1 X85.620 Y69.397 F6000.000
G1 F1800.000
G1 X90.380 Y64.637 E11.78812
G1 X90.380 Y64.127 E11.80217
G1 X85.620 Y68.888 E11.98774
G1 X85.620 Y68.378 E12.00179
G1 X90.380 Y63.617 E12.18736
G1 X90.380 Y63.108 E12.20141
G1 X85.620 Y67.868 E12.38698
G1 X85.620 Y67.359 E12.40103
G1 X90.380 Y62.598 E12.58660
G1 X90.380 Y62.089 E12.60065
G1 X85.620 Y66.849 E12.78623
G1 X85.620 Y66.340 E12.80027
G1 X90.340 Y61.620 E12.98427
G1 X89.830 Y61.620 E12.99831
G1 X85.620 Y65.830 E13.16244
G1 X85.620 Y65.321 E13.17649
G1 X89.321 Y61.620 E13.32075
G1 X88.811 Y61.620 E13.33480
G1 X85.620 Y64.811 E13.45920
G1 X85.620 Y64.301 E13.47325
G1 X88.301 Y61.620 E13.57779
G1 X87.792 Y61.620 E13.59183
G1 X85.620 Y63.792 E13.67650
G1 X85.620 Y63.282 E13.69055
G1 X87.282 Y61.620 E13.75536
G1 X86.773 Y61.620 E13.76941
G1 X85.620 Y62.773 E13.81435
G1 X85.620 Y62.263 E13.82840
G1 X86.263 Y61.620 E13.85348
G1 E11.85348 F1200.00000
G92 E0
G1 Z0.700 F6000.000
G1 X62.363 Y69.213 F6000.000
G1 Z0.200 F6000.000
G1 E2.00000 F1200.00000
G1 F1800.000
G1 X61.713 Y69.863 E2.02536
G1 X61.394 Y70.225 E2.03866
G1 X61.096 Y70.609 E2.05204
G1 X60.823 Y71.011 E2.06542
G1 X60.492 Y71.594 E2.08392
G1 X64.094 Y67.992 E2.22435
G1 X64.361 Y67.856 E2.23260
G1 X65.003 Y67.592 E2.25174
G1 X60.092 Y72.503 E2.44319
G1 X59.860 Y73.246 E2.46463
G1 X65.746 Y67.360 E2.69407
G1 X66.386 Y67.228 E2.71211
G1 X59.728 Y73.886 E2.97165
G1 X59.654 Y74.470 E2.98787
G1 X66.970 Y67.154 E3.27306
G1 X67.509 Y67.125 E3.28794
G1 X59.625 Y75.009 E3.59528
G1 X59.632 Y75.512 E3.60914
G1 X68.012 Y67.132 E3.93581
G1 X68.485 Y67.168 E3.94888
G1 X59.668 Y75.985 E4.29254
G1 X59.731 Y76.432 E4.30499
G1 X68.932 Y67.231 E4.66367
G1 X69.357 Y67.315 E4.67563
G1 X59.815 Y76.857 E5.04761
G1 X59.918 Y77.263 E5.05916
G1 X69.763 Y67.418 E5.44294
G1 X70.152 Y67.539 E5.45416
G1 X60.039 Y77.652 E5.84839
G1 X60.176 Y78.025 E5.85934
G1 X70.525 Y67.676 E6.26279
G1 X70.881 Y67.829 E6.27347
G1 X60.329 Y78.381 E6.68479
G1 X60.498 Y78.722 E6.69527
G1 X71.222 Y67.998 E7.11328
G1 X71.550 Y68.180 E7.12362
G1 X60.680 Y79.050 E7.54734
G1 X60.873 Y79.366 E7.55756
G1 X71.866 Y68.373 E7.98607
G1 X72.169 Y68.580 E7.99618
G1 X61.079 Y79.669 E8.42848
G1 X61.301 Y79.958 E8.43849
G1 X72.458 Y68.801 E8.87341
G1 X72.745 Y69.023 E8.88342
G1 X61.533 Y80.235 E9.32047
G1 X61.775 Y80.502 E9.33042
G1 X73.158 Y69.120 E9.77412
G1 X73.667 Y69.120 E9.78817
G1 X62.030 Y80.757 E10.24181
G1 X62.299 Y80.997 E10.25176
G1 X74.177 Y69.120 E10.71477
G1 X74.687 Y69.120 E10.72882
G1 X62.579 Y81.227 E11.20080
G1 X62.869 Y81.447 E11.21083
G1 X75.196 Y69.120 E11.69135
G1 X75.706 Y69.120 E11.70540
G1 X63.173 Y81.653 E12.19396
G1 X63.491 Y81.844 E12.20420
G1 X76.215 Y69.120 E12.70022
G1 X76.725 Y69.120 E12.71426
G1 X63.821 Y82.023 E13.21727
G1 X64.164 Y82.190 E13.22778
G1 X77.234 Y69.120 E13.73729
G1 X77.744 Y69.120 E13.75133
G1 X64.521 Y82.343 E14.26680
G1 X64.895 Y82.478 E14.27778
G1 X78.254 Y69.120 E14.79851
G1 X78.763 Y69.120 E14.81255
G1 X65.287 Y82.596 E15.33789
G1 X65.695 Y82.697 E15.34950
G1 X79.273 Y69.120 E15.87876
G1 X79.782 Y69.120 E15.89281
G1 X66.124 Y82.778 E16.42523
G1 X66.574 Y82.837 E16.43776
G1 X80.292 Y69.120 E16.97249
G1 X80.801 Y69.120 E16.98654
G1 X67.051 Y82.870 E17.52256
G1 X67.349 Y82.880 E17.53077
G1 X67.558 Y82.873 E17.53653
G1 X81.311 Y69.120 E18.07266
G1 X81.821 Y69.120 E18.08671
G1 X68.101 Y82.839 E18.62151
G1 X68.317 Y82.819 E18.62749
G1 X68.690 Y82.760 E18.63791
G1 X82.330 Y69.120 E19.16961
G1 X82.840 Y69.120 E19.18366
G1 X69.344 Y82.615 E19.70975
G1 X70.098 Y82.371 E19.73158
G1 X83.349 Y69.120 E20.24816
G1 X83.859 Y69.120 E20.26221
G1 X71.038 Y81.941 E20.76200
G1 X71.489 Y81.677 E20.77644
G1 X71.891 Y81.404 E20.78982
G1 X72.566 Y80.880 E20.81336
G1 X72.608 Y80.880 E20.81452
G1 X84.368 Y69.120 E21.27297
G1 X84.878 Y69.120 E21.28701
G1 X73.117 Y80.880 E21.74546
G1 X73.627 Y80.880 E21.75951
G1 X85.388 Y69.120 E22.21795
G1 X85.897 Y69.120 E22.23200
G1 X74.137 Y80.880 E22.69045
G1 X74.646 Y80.880 E22.70449
G1 X90.380 Y65.146 E23.31783
G1 X90.380 Y65.656 E23.33188
G1 X75.156 Y80.880 E23.92536
G1 X75.665 Y80.880 E23.93940
G1 X90.380 Y66.165 E24.51302
G1 X90.380 Y66.675 E24.52706
G1 X76.175 Y80.880 E25.08081
G1 X76.685 Y80.880 E25.09486
G1 X90.380 Y67.185 E25.62874
G1 X90.380 Y67.694 E25.64279
G1 X77.194 Y80.880 E26.15681
G1 X77.704 Y80.880 E26.17086
G1 X90.380 Y68.204 E26.66501
G1 X90.380 Y68.713 E26.67906
G1 X78.213 Y80.880 E27.15335
G1 X78.723 Y80.880 E27.16740
G1 X90.380 Y69.223 E27.62183
G1 X90.380 Y69.732 E27.63587
G1 X79.232 Y80.880 E28.07044
G1 X79.742 Y80.880 E28.08448
G1 X90.380 Y70.242 E28.49918
G1 X90.380 Y70.752 E28.51323
G1 X80.252 Y80.880 E28.90806
G1 X80.761 Y80.880 E28.92211
G1 X90.380 Y71.261 E29.29708
G1 X90.380 Y71.771 E29.31113
G1 X81.271 Y80.880 E29.66623
G1 X81.780 Y80.880 E29.68028
G1 X90.380 Y72.280 E30.01552
G1 X90.380 Y72.790 E30.02957
G1 X82.290 Y80.880 E30.34495
G1 X82.799 Y80.880 E30.35899
G1 X90.380 Y73.299 E30.65451
G1 X90.380 Y73.809 E30.66856
G1 X83.309 Y80.880 E30.94421
G1 X83.819 Y80.880 E30.95825
G1 X90.380 Y74.319 E31.21404
G1 X90.380 Y74.828 E31.22808
G1 X84.328 Y80.880 E31.46401
G1 X84.838 Y80.880 E31.47805
G1 X90.380 Y75.338 E31.69411
G1 X90.380 Y75.847 E31.70816
G1 X85.347 Y80.880 E31.90435
G1 X85.620 Y80.880 E31.91186
G1 X85.620 Y81.117 E31.91840
G1 X90.380 Y76.357 E32.10397
G1 X90.380 Y76.866 E32.11802
G1 X85.620 Y81.627 E32.30359
G1 X85.620 Y82.137 E32.31764
G1 X90.380 Y77.376 E32.50321
G1 X90.380 Y77.886 E32.51726
G1 X85.620 Y82.646 E32.70283
G1 X85.620 Y83.156 E32.71688
G1 X90.380 Y78.395 E32.90246
G1 X90.380 Y78.905 E32.91650
G1 X85.620 Y83.665 E33.10208
G1 X85.620 Y84.175 E33.11612
G1 X90.380 Y79.414 E33.30170
G1 X90.380 Y79.924 E33.31574
G1 X85.620 Y84.684 E33.50132
G1 X85.620 Y85.194 E33.51536
G1 X90.380 Y80.434 E33.70094
G1 X90.380 Y80.943 E33.71499
G1 X85.620 Y85.704 E33.90056
G1 X85.620 Y86.213 E33.91461
G1 X90.380 Y81.453 E34.10018
G1 X90.380 Y81.962 E34.11423
G1 X85.620 Y86.723 E34.29980
G1 X85.620 Y87.232 E34.31385
G1 X90.380 Y82.472 E34.49942
G1 X90.380 Y82.981 E34.51347
G1 X85.620 Y87.742 E34.69904
G1 X85.620 Y88.252 E34.71309
G1 X90.380 Y83.491 E34.89867
G1 X90.380 Y84.001 E34.91271
G1 X86.001 Y88.380 E35.08344
G1 X86.510 Y88.380 E35.09749
G1 X90.380 Y84.510 E35.24835
G1 X90.380 Y85.020 E35.26240
G1 X87.020 Y88.380 E35.39340
G1 X87.529 Y88.380 E35.40745
G1 X90.380 Y85.529 E35.51858
G1 X90.380 Y86.039 E35.53263
G1 X88.039 Y88.380 E35.62390
G1 X88.548 Y88.380 E35.63795
G1 X90.380 Y86.548 E35.70936
G1 X90.380 Y87.058 E35.72341
G1 X89.058 Y88.380 E35.77495
G1 X89.568 Y88.380 E35.78900
G1 X90.380 Y87.568 E35.82068
G1 X90.380 Y88.077 E35.83472
G1 X90.077 Y88.380 E35.84654
G1 Z0.400 F6000.000
G1 E33.84654 F1200.00000
G92 E0
G1 Z0.900 F6000.000
G1 X85.694 Y69.194 F6000.000
G1 Z0.400 F6000.000
G1 E2.00000 F1200.00000
G1 F2400.000
G1 X85.694 Y61.694 E2.29667
G1 X90.306 Y61.694 E2.47909
G1 X90.306 Y88.306 E3.53173
G1 X85.694 Y88.306 E3.71415
G1 X85.694 Y80.806 E4.01082
G1 X72.744 Y80.806 E4.52308
G1 X72.088 Y81.315 E4.55592
G1 X71.682 Y81.590 E4.57531
G1 X71.260 Y81.840 E4.59471
G1 X70.823 Y82.062 E4.61410
G1 X70.373 Y82.257 E4.63350
G1 X69.912 Y82.423 E4.65289
G1 X69.441 Y82.560 E4.67229
G1 X68.963 Y82.667 E4.69169
G1 X68.478 Y82.744 E4.71108
G1 X67.990 Y82.790 E4.73048
G1 X67.500 Y82.805 E4.74987
G1 X67.010 Y82.790 E4.76927
G1 X66.522 Y82.744 E4.78866
G1 X66.037 Y82.667 E4.80806
G1 X65.559 Y82.560 E4.82746
G1 X65.088 Y82.423 E4.84685
G1 X64.627 Y82.257 E4.86625
G1 X64.177 Y82.062 E4.88564
G1 X63.740 Y81.840 E4.90504
G1 X63.318 Y81.590 E4.92443
G1 X62.912 Y81.315 E4.94383
G1 X62.525 Y81.014 E4.96322
G1 X62.157 Y80.690 E4.98262
G1 X61.810 Y80.343 E5.00202
G1 X61.486 Y79.975 E5.02141
G1 X61.185 Y79.588 E5.04081
G1 X60.910 Y79.182 E5.06020
G1 X60.660 Y78.760 E5.07960
G1 X60.438 Y78.323 E5.09899
G1 X60.243 Y77.873 E5.11839
G1 X60.077 Y77.412 E5.13779
G1 X59.940 Y76.941 E5.15718
G1 X59.833 Y76.463 E5.17658
G1 X59.756 Y75.978 E5.19597
G1 X59.710 Y75.490 E5.21537
G1 X59.695 Y75.000 E5.23476
G1 X59.710 Y74.510 E5.25416
G1 X59.756 Y74.022 E5.27356
G1 X59.833 Y73.537 E5.29295
G1 X59.940 Y73.059 E5.31235
G1 X60.077 Y72.588 E5.33174
G1 X60.243 Y72.127 E5.35114
G1 X60.438 Y71.677 E5.37053
G1 X60.660 Y71.240 E5.38993
G1 X60.910 Y70.818 E5.40933
G1 X61.185 Y70.412 E5.42872
G1 X61.486 Y70.025 E5.44812
G1 X61.810 Y69.657 E5.46751
G1 X62.157 Y69.310 E5.48691
G1 X62.525 Y68.986 E5.50630
G1 X62.912 Y68.685 E5.52570
