; generated by Slic3r 1.3.1-dev (Build (Unknown revision)) on 2020-06-18 at 16:25:57

; external perimeters extrusion width = 0.44mm (2.86mm^3/s)
; perimeters extrusion width = 0.56mm (4.14mm^3/s)
; infill extrusion width = 0.50mm (3.66mm^3/s)
; solid infill extrusion width = 0.56mm (3.10mm^3/s)
; top infill extrusion width = 0.45mm (2.44mm^3/s)

M107
G92 E0
;D3D:START:START
T0
M104 S215 T0

G21
G90
M107
T0
G28
G29
M109 T0 S215 T0
G0 F3000
M107
T0
G92 E0
G0 X0 Y149 Z0.1 F3600
G1 Y49 E6.5 F1200
G0 Z1
G92 E0
; Filament gcode

G21 ; set units to millimeters
G90 ; use absolute coordinates
M82 ; use absolute distances for extrusion
G92 E0
G1 Z0.200 F6000.000
G1 E-2.00000 F1200.00000
G92 E0
G1 Z0.700 F6000.000
G1 X39.974 Y49.341 F6000.000
G1 Z0.200 F6000.000
G1 E2.00000 F1200.00000
G1 F1800.000
G1 X43.200 Y48.486 E2.06421
G1 X106.800 Y48.486 E3.28779
G1 X109.039 Y48.883 E3.33154
G1 X111.005 Y50.025 E3.37529
G1 X112.459 Y51.774 E3.41904
G1 X113.314 Y55.000 E3.48324
G1 X113.314 Y95.000 E4.25279
G1 X112.917 Y97.239 E4.29654
G1 X111.775 Y99.205 E4.34029
G1 X110.026 Y100.659 E4.38404
G1 X106.800 Y101.514 E4.44825
G1 X43.200 Y101.514 E5.67182
G1 X40.961 Y101.117 E5.71557
G1 X38.995 Y99.975 E5.75932
G1 X37.541 Y98.226 E5.80307
G1 X36.686 Y95.000 E5.86728
G1 X36.686 Y55.000 E6.63683
G1 X37.083 Y52.761 E6.68058
G1 X38.225 Y50.795 E6.72433
G1 X39.928 Y49.379 E6.76692
G1 X40.219 Y49.499 F6000.000
G1 F1800.000
G1 X43.200 Y48.743 E6.82610
G1 X106.800 Y48.743 E8.04967
G1 X108.993 Y49.140 E8.09254
G1 X110.907 Y50.280 E8.13542
G1 X112.301 Y52.019 E8.17829
G1 X113.057 Y55.000 E8.23746
G1 X113.057 Y95.000 E9.00701
G1 X112.660 Y97.193 E9.04988
G1 X111.520 Y99.107 E9.09275
G1 X109.781 Y100.501 E9.13562
G1 X106.800 Y101.257 E9.19479
G1 X43.200 Y101.257 E10.41837
G1 X41.007 Y100.860 E10.46124
G1 X39.093 Y99.720 E10.50411
G1 X37.699 Y97.981 E10.54698
G1 X36.943 Y95.000 E10.60616
G1 X36.943 Y55.000 E11.37570
G1 X37.340 Y52.807 E11.41857
G1 X38.480 Y50.893 E11.46144
G1 X40.172 Y49.536 E11.50316
G1 E9.50316 F1200.00000
G92 E0
G1 Z0.700 F6000.000
G1 X64.045 Y90.467 F6000.000
G1 Z0.200 F6000.000
G1 E2.00000 F1200.00000
G1 F1800.000
G1 X60.350 Y92.600 E2.08209
G1 X56.655 Y90.467 E2.16418
G1 X56.655 Y86.200 E2.24627
G1 X60.350 Y84.066 E2.32836
G1 X64.045 Y86.200 E2.41045
G1 X64.045 Y90.407 E2.49138
G1 X63.788 Y90.318 F6000.000
G1 F1800.000
G1 X60.350 Y92.303 E2.56776
G1 X56.912 Y90.318 E2.64414
G1 X56.912 Y86.348 E2.72052
G1 X60.350 Y84.363 E2.79689
G1 X63.788 Y86.348 E2.87327
G1 X63.788 Y90.258 E2.94850
G1 X63.531 Y90.170 F6000.000
G1 F1800.000
G1 X60.350 Y92.007 E3.01916
G1 X57.169 Y90.170 E3.08983
G1 X57.169 Y86.497 E3.16050
G1 X60.350 Y84.660 E3.23117
G1 X63.531 Y86.497 E3.30183
G1 X63.531 Y90.110 E3.37135
G1 X63.731 Y90.516 F6000.000
G1 E1.37135 F1200.00000
G92 E0
G1 Z0.700 F6000.000
G1 X60.350 Y65.934 F6000.000
G1 Z0.200 F6000.000
G1 E2.00000 F1200.00000
G1 F1800.000
G1 X56.655 Y63.800 E2.08209
G1 X56.655 Y59.533 E2.16418
G1 X60.350 Y57.400 E2.24627
G1 X64.045 Y59.533 E2.32836
G1 X64.045 Y63.800 E2.41045
G1 X60.402 Y65.904 E2.49138
G1 X60.350 Y65.637 F6000.000
G1 F1800.000
G1 X56.912 Y63.652 E2.56776
G1 X56.912 Y59.682 E2.64414
G1 X60.350 Y57.697 E2.72052
G1 X63.788 Y59.682 E2.79689
G1 X63.788 Y63.652 E2.87327
G1 X60.402 Y65.607 E2.94850
G1 X60.350 Y65.340 F6000.000
G1 F1800.000
G1 X57.169 Y63.503 E3.01916
G1 X57.169 Y59.830 E3.08983
G1 X60.350 Y57.993 E3.16050
G1 X63.531 Y59.830 E3.23117
G1 X63.531 Y63.503 E3.30183
G1 X60.402 Y65.310 E3.37135
G1 X60.150 Y65.686 F6000.000
G1 E1.37135 F1200.00000
G92 E0
G1 Z0.700 F6000.000
G1 X97.955 Y63.800 F6000.000
G1 Z0.200 F6000.000
G1 E2.00000 F1200.00000
G1 F1800.000
G1 X97.955 Y59.533 E2.08209
G1 X101.650 Y57.400 E2.16418
G1 X105.345 Y59.533 E2.24627
G1 X105.345 Y63.800 E2.32836
G1 X101.650 Y65.934 E2.41045
G1 X98.007 Y63.830 E2.49138
G1 X98.212 Y63.652 F6000.000
G1 F1800.000
G1 X98.212 Y59.682 E2.56776
G1 X101.650 Y57.697 E2.64414
G1 X105.088 Y59.682 E2.72052
G1 X105.088 Y63.652 E2.79690
G1 X101.650 Y65.637 E2.87327
G1 X98.264 Y63.682 E2.94850
G1 X98.469 Y63.503 F6000.000
G1 F1800.000
G1 X98.469 Y59.830 E3.01917
G1 X101.650 Y57.993 E3.08983
G1 X104.831 Y59.830 E3.16050
G1 X104.831 Y63.503 E3.23117
G1 X101.650 Y65.340 E3.30184
G1 X98.521 Y63.533 E3.37135
G1 X98.069 Y63.503 F6000.000
G1 E1.37135 F1200.00000
G92 E0
G1 Z0.700 F6000.000
G1 X101.650 Y84.066 F6000.000
G1 Z0.200 F6000.000
G1 E2.00000 F1200.00000
G1 F1800.000
G1 X105.345 Y86.200 E2.08209
G1 X105.345 Y90.467 E2.16418
G1 X101.650 Y92.600 E2.24627
G1 X97.955 Y90.467 E2.32836
G1 X97.955 Y86.200 E2.41045
G1 X101.598 Y84.096 E2.49138
G1 X101.650 Y84.363 F6000.000
G1 F1800.000
G1 X105.088 Y86.348 E2.56776
G1 X105.088 Y90.318 E2.64414
G1 X101.650 Y92.303 E2.72052
G1 X98.212 Y90.318 E2.79690
G1 X98.212 Y86.348 E2.87327
G1 X101.598 Y84.393 E2.94850
G1 X101.650 Y84.660 F6000.000
G1 F1800.000
G1 X104.831 Y86.497 E3.01917
G1 X104.831 Y90.170 E3.08983
G1 X101.650 Y92.006 E3.16050
G1 X98.469 Y90.170 E3.23117
G1 X98.469 Y86.497 E3.30184
G1 X101.598 Y84.690 E3.37135
G1 X101.850 Y84.314 F6000.000
G1 E1.37135 F1200.00000
G92 E0
G1 Z0.700 F6000.000
G1 X106.136 Y94.336 F6000.000
G1 Z0.200 F6000.000
G1 E2.00000 F1200.00000
G1 F1800.000
G1 X43.864 Y94.336 E3.19802
G1 X43.864 Y55.664 E3.94201
G1 X106.136 Y55.664 E5.14003
G1 X106.136 Y94.276 E5.88287
G1 X106.393 Y94.593 F6000.000
G1 F1800.000
G1 X43.607 Y94.593 E7.09078
G1 X43.607 Y55.407 E7.84467
G1 X106.393 Y55.407 E9.05258
G1 X106.393 Y94.533 E9.80531
G1 X106.650 Y94.850 F6000.000
G1 F1800.000
G1 X43.350 Y94.850 E11.02311
G1 X43.350 Y55.150 E11.78689
G1 X106.650 Y55.150 E13.00469
G1 X106.650 Y94.790 E13.76731
G1 X106.257 Y94.776 F6000.000
G1 X105.770 Y94.188 F6000.000
G1 F1800.000
G1 X105.988 Y93.970 E13.77327
G1 X105.988 Y93.605 E13.78030
G1 X105.405 Y94.188 E13.79621
G1 X105.040 Y94.188 E13.80325
G1 X105.988 Y93.240 E13.82911
G1 X105.988 Y92.876 E13.83614
G1 X104.676 Y94.188 E13.87195
G1 X104.311 Y94.188 E13.87899
G1 X105.988 Y92.511 E13.92475
G1 X105.988 Y92.146 E13.93179
G1 X103.946 Y94.188 E13.98750
G1 X103.582 Y94.188 E13.99453
G1 X105.988 Y91.782 E14.06020
G1 X105.988 Y91.417 E14.06723
G1 X103.217 Y94.188 E14.14285
G1 X102.852 Y94.188 E14.14988
G1 X105.988 Y91.052 E14.23545
G1 X105.988 Y90.688 E14.24248
G1 X102.488 Y94.188 E14.33800
G1 X102.123 Y94.188 E14.34503
G1 X105.988 Y90.323 E14.45050
G1 X105.988 Y89.958 E14.45754
G1 X105.493 Y90.453 E14.47103
G1 X105.493 Y90.088 E14.47807
G1 X105.988 Y89.594 E14.49157
G1 X105.988 Y89.229 E14.49860
G1 X105.493 Y89.724 E14.51210
G1 X105.493 Y89.359 E14.51914
G1 X105.988 Y88.864 E14.53263
G1 X105.988 Y88.500 E14.53967
G1 X105.493 Y88.994 E14.55317
G1 X105.493 Y88.630 E14.56020
G1 X105.988 Y88.135 E14.57370
G1 X105.988 Y87.770 E14.58074
G1 X105.493 Y88.265 E14.59424
G1 X105.493 Y87.900 E14.60127
G1 X105.988 Y87.406 E14.61477
G1 X105.988 Y87.041 E14.62181
G1 X105.493 Y87.536 E14.63530
G1 X105.493 Y87.171 E14.64234
G1 X105.988 Y86.677 E14.65584
G1 X105.988 Y86.312 E14.66287
G1 X105.493 Y86.806 E14.67637
G1 X105.493 Y86.442 E14.68341
G1 X105.988 Y85.947 E14.69690
G1 X105.988 Y85.583 E14.70394
G1 X105.440 Y86.130 E14.71888
G1 X105.209 Y85.997 E14.72403
G1 X105.988 Y85.218 E14.74528
G1 X105.988 Y84.853 E14.75231
G1 X104.978 Y85.863 E14.77987
G1 X104.747 Y85.730 E14.78502
G1 X105.988 Y84.489 E14.81889
G1 X105.988 Y84.124 E14.82592
G1 X104.516 Y85.596 E14.86610
G1 X104.285 Y85.463 E14.87125
G1 X105.988 Y83.759 E14.91773
G1 X105.988 Y83.395 E14.92476
G1 X104.053 Y85.329 E14.97756
G1 X103.822 Y85.196 E14.98271
G1 X105.988 Y83.030 E15.04181
G1 X105.988 Y82.665 E15.04884
G1 X103.591 Y85.062 E15.11425
G1 X103.360 Y84.929 E15.11940
G1 X105.988 Y82.301 E15.19112
G1 X105.988 Y81.936 E15.19815
G1 X103.129 Y84.795 E15.27618
G1 X102.897 Y84.662 E15.28133
G1 X105.988 Y81.571 E15.36567
G1 X105.988 Y81.207 E15.37270
G1 X102.666 Y84.528 E15.46334
G1 X102.435 Y84.395 E15.46850
G1 X105.988 Y80.842 E15.56545
G1 X105.988 Y80.477 E15.57248
G1 X102.204 Y84.261 E15.67574
G1 X101.973 Y84.128 E15.68089
G1 X105.988 Y80.113 E15.79046
G1 X105.988 Y79.748 E15.79750
G1 X101.742 Y83.994 E15.91338
G1 X101.541 Y83.879 E15.91785
G1 X101.427 Y83.945 E15.92039
G1 X105.988 Y79.383 E16.04486
G1 X105.988 Y79.019 E16.05189
G1 X100.564 Y84.443 E16.19991
G1 X99.701 Y84.941 E16.21913
G1 X105.988 Y78.654 E16.39068
G1 X105.988 Y78.290 E16.39772
G1 X98.838 Y85.439 E16.59282
G1 X97.976 Y85.937 E16.61204
G1 X105.988 Y77.925 E16.83068
G1 X105.988 Y77.560 E16.83772
G1 X89.360 Y94.188 E17.29147
G1 X88.996 Y94.188 E17.29850
G1 X105.988 Y77.196 E17.76220
G1 X105.988 Y76.831 E17.76924
G1 X88.631 Y94.188 E18.24289
G1 X88.266 Y94.188 E18.24993
G1 X105.988 Y76.466 E18.73353
G1 X105.988 Y76.102 E18.74056
G1 X87.902 Y94.188 E19.23412
G1 X87.537 Y94.188 E19.24115
G1 X105.988 Y75.737 E19.74466
G1 X105.988 Y75.372 E19.75169
G1 X87.172 Y94.188 E20.26515
G1 X86.808 Y94.188 E20.27218
G1 X105.988 Y75.008 E20.79559
G1 X105.988 Y74.643 E20.80263
G1 X86.443 Y94.188 E21.33598
G1 X86.078 Y94.188 E21.34302
G1 X105.988 Y74.278 E21.88633
G1 X105.988 Y73.914 E21.89336
G1 X85.714 Y94.188 E22.44662
G1 X85.349 Y94.188 E22.45366
G1 X105.988 Y73.549 E23.01687
G1 X105.988 Y73.184 E23.02390
G1 X84.984 Y94.188 E23.59706
G1 X84.620 Y94.188 E23.60410
G1 X105.988 Y72.820 E24.18721
G1 X105.988 Y72.455 E24.19425
G1 X84.255 Y94.188 E24.78731
G1 X83.890 Y94.188 E24.79435
G1 X105.988 Y72.090 E25.39736
G1 X105.988 Y71.726 E25.40439
G1 X83.526 Y94.188 E26.01736
G1 X83.161 Y94.188 E26.02440
G1 X105.988 Y71.361 E26.64731
G1 X105.988 Y70.996 E26.65435
G1 X82.796 Y94.188 E27.28721
G1 X82.432 Y94.188 E27.29425
G1 X105.988 Y70.632 E27.93706
G1 X105.988 Y70.267 E27.94410
G1 X82.067 Y94.188 E28.59687
G1 X81.703 Y94.188 E28.60391
G1 X105.988 Y69.903 E29.26662
G1 X105.988 Y69.538 E29.27366
G1 X81.338 Y94.188 E29.94633
G1 X80.973 Y94.188 E29.95337
G1 X105.988 Y69.173 E30.63599
G1 X105.988 Y68.809 E30.64302
G1 X80.609 Y94.188 E31.33559
G1 X80.244 Y94.188 E31.34263
G1 X105.988 Y68.444 E32.04515
G1 X105.988 Y68.079 E32.05219
G1 X79.879 Y94.188 E32.76466
G1 X79.515 Y94.188 E32.77170
G1 X105.988 Y67.715 E33.49412
G1 X105.988 Y67.350 E33.50116
G1 X79.150 Y94.188 E34.23353
G1 X78.785 Y94.188 E34.24057
G1 X105.988 Y66.985 E34.98290
G1 X105.988 Y66.621 E34.98993
G1 X78.421 Y94.188 E35.74221
G1 X78.056 Y94.188 E35.74925
G1 X105.988 Y66.256 E36.51147
G1 X105.988 Y65.891 E36.51851
G1 X77.691 Y94.188 E37.29069
G1 X77.327 Y94.188 E37.29773
G1 X105.988 Y65.527 E38.07986
G1 X105.988 Y65.162 E38.08689
G1 X76.962 Y94.188 E38.87897
G1 X76.597 Y94.188 E38.88601
G1 X105.988 Y64.797 E39.68804
G1 X105.988 Y64.433 E39.69508
G1 X76.233 Y94.188 E40.50706
G1 X75.868 Y94.188 E40.51410
G1 X105.988 Y64.068 E41.33603
G1 X105.988 Y63.703 E41.34307
G1 X75.503 Y94.188 E42.17495
G1 X75.139 Y94.188 E42.18199
G1 X105.181 Y64.146 E43.00180
G1 X104.318 Y64.644 E43.02102
G1 X74.774 Y94.188 E43.82725
G1 X74.409 Y94.188 E43.83428
G1 X103.455 Y65.142 E44.62691
G1 X102.593 Y65.640 E44.64613
G1 X74.045 Y94.188 E45.42517
G1 X73.680 Y94.188 E45.43221
G1 X101.751 Y66.117 E46.19823
G1 X101.520 Y65.983 E46.20338
G1 X73.316 Y94.188 E46.97305
G1 X72.951 Y94.188 E46.98009
G1 X101.289 Y65.850 E47.75340
G1 X101.058 Y65.716 E47.75855
G1 X72.586 Y94.188 E48.53551
G1 X72.222 Y94.188 E48.54254
G1 X100.827 Y65.583 E49.32314
G1 X100.595 Y65.449 E49.32829
G1 X71.857 Y94.188 E50.11253
G1 X71.492 Y94.188 E50.11956
G1 X100.364 Y65.316 E50.90744
G1 X100.133 Y65.183 E50.91259
G1 X71.128 Y94.188 E51.70412
G1 X70.763 Y94.188 E51.71115
G1 X99.902 Y65.049 E52.50632
G1 X99.671 Y64.916 E52.51147
G1 X70.398 Y94.188 E53.31028
G1 X70.034 Y94.188 E53.31731
G1 X99.439 Y64.782 E54.11976
G1 X99.208 Y64.649 E54.12491
G1 X69.669 Y94.188 E54.93101
G1 X69.304 Y94.188 E54.93804
G1 X98.977 Y64.515 E55.74778
G1 X98.746 Y64.382 E55.75293
G1 X68.940 Y94.188 E56.56630
G1 X68.575 Y94.188 E56.57334
G1 X98.515 Y64.248 E57.39036
G1 X98.284 Y64.115 E57.39551
G1 X68.210 Y94.188 E58.21617
G1 X67.846 Y94.188 E58.22321
G1 X98.052 Y63.981 E59.04751
G1 X97.821 Y63.848 E59.05266
G1 X67.481 Y94.188 E59.88060
G1 X67.116 Y94.188 E59.88764
G1 X97.807 Y63.498 E60.72514
G1 X97.807 Y63.133 E60.73218
G1 X66.752 Y94.188 E61.57964
G1 X66.387 Y94.188 E61.58667
G1 X97.807 Y62.768 E62.44408
G1 X97.807 Y62.404 E62.45111
G1 X66.022 Y94.188 E63.31847
G1 X65.658 Y94.188 E63.32551
G1 X97.807 Y62.039 E64.20281
G1 X97.807 Y61.674 E64.20985
G1 X65.293 Y94.188 E65.09711
G1 X64.929 Y94.188 E65.10414
G1 X97.807 Y61.310 E66.00135
G1 X97.807 Y60.945 E66.00839
G1 X64.564 Y94.188 E66.91555
G1 X64.199 Y94.188 E66.92258
G1 X97.807 Y60.580 E67.83970
G1 X97.807 Y60.216 E67.84673
G1 X63.835 Y94.188 E68.77379
G1 X63.470 Y94.188 E68.78083
G1 X97.807 Y59.851 E69.71784
G1 X97.807 Y59.486 E69.72488
G1 X63.105 Y94.188 E70.67184
G1 X62.741 Y94.188 E70.67888
G1 X101.116 Y55.812 E71.72611
G1 X100.752 Y55.812 E71.73314
G1 X62.376 Y94.188 E72.78037
G1 X62.011 Y94.188 E72.78741
G1 X100.387 Y55.812 E73.83464
G1 X100.022 Y55.812 E73.84168
G1 X61.647 Y94.188 E74.88891
G1 X61.282 Y94.188 E74.89594
G1 X99.658 Y55.812 E75.94317
G1 X99.293 Y55.812 E75.95021
G1 X60.917 Y94.188 E76.99744
G1 X60.553 Y94.188 E77.00447
G1 X63.993 Y90.748 E77.09835
G1 X63.130 Y91.246 E77.11757
G1 X60.188 Y94.188 E77.19786
G1 X59.823 Y94.188 E77.20489
G1 X62.267 Y91.744 E77.27158
G1 X61.404 Y92.242 E77.29081
G1 X59.459 Y94.188 E77.34390
G1 X59.094 Y94.188 E77.35094
G1 X60.542 Y92.740 E77.39044
G1 X60.459 Y92.788 E77.39228
G1 X60.250 Y92.667 E77.39694
G1 X58.729 Y94.188 E77.43844
G1 X58.365 Y94.188 E77.44547
G1 X60.019 Y92.534 E77.49061
G1 X59.788 Y92.400 E77.49576
G1 X58.000 Y94.188 E77.54454
G1 X57.635 Y94.188 E77.55158
G1 X59.556 Y92.267 E77.60400
G1 X59.325 Y92.133 E77.60915
G1 X57.271 Y94.188 E77.66521
G1 X56.906 Y94.188 E77.67225
G1 X59.094 Y92.000 E77.73196
G1 X58.863 Y91.866 E77.73711
G1 X56.542 Y94.188 E77.80046
G1 X56.177 Y94.188 E77.80749
G1 X58.632 Y91.733 E77.87449
G1 X58.401 Y91.599 E77.87964
G1 X55.812 Y94.188 E77.95027
G1 X55.448 Y94.188 E77.95731
G1 X58.169 Y91.466 E78.03158
G1 X57.938 Y91.333 E78.03673
G1 X55.083 Y94.188 E78.11465
G1 X54.718 Y94.188 E78.12169
G1 X57.707 Y91.199 E78.20325
G1 X57.476 Y91.066 E78.20840
G1 X54.354 Y94.188 E78.29360
G1 X53.989 Y94.188 E78.30064
G1 X57.245 Y90.932 E78.38948
G1 X57.014 Y90.799 E78.39463
G1 X53.624 Y94.188 E78.48712
G1 X53.260 Y94.188 E78.49416
G1 X56.782 Y90.665 E78.59029
G1 X56.551 Y90.532 E78.59544
G1 X52.895 Y94.188 E78.69521
G1 X52.530 Y94.188 E78.70225
G1 X56.507 Y90.211 E78.81076
G1 X56.507 Y89.847 E78.81779
G1 X52.166 Y94.188 E78.93626
G1 X51.801 Y94.188 E78.94329
G1 X56.507 Y89.482 E79.07171
G1 X56.507 Y89.117 E79.07874
G1 X51.436 Y94.188 E79.21711
G1 X51.072 Y94.188 E79.22414
G1 X56.507 Y88.753 E79.37246
G1 X56.507 Y88.388 E79.37950
G1 X50.707 Y94.188 E79.53776
G1 X50.342 Y94.188 E79.54480
G1 X56.507 Y88.024 E79.71302
G1 X56.507 Y87.659 E79.72005
G1 X49.978 Y94.188 E79.89822
G1 X49.613 Y94.188 E79.90526
G1 X56.507 Y87.294 E80.09338
G1 X56.507 Y86.930 E80.10041
G1 X49.248 Y94.188 E80.29848
G1 X48.884 Y94.188 E80.30552
G1 X56.507 Y86.565 E80.51354
G1 X56.507 Y86.200 E80.52058
G1 X48.519 Y94.188 E80.73855
G1 X48.155 Y94.188 E80.74559
G1 X86.530 Y55.812 E81.79281
G1 X86.166 Y55.812 E81.79985
G1 X47.790 Y94.188 E82.84708
G1 X47.425 Y94.188 E82.85412
G1 X85.801 Y55.812 E83.90135
G1 X85.436 Y55.812 E83.90838
G1 X47.061 Y94.188 E84.95561
G1 X46.696 Y94.188 E84.96265
G1 X85.072 Y55.812 E86.00988
G1 X84.707 Y55.812 E86.01691
G1 X46.331 Y94.188 E87.06414
G1 X45.967 Y94.188 E87.07118
G1 X84.342 Y55.812 E88.11841
G1 X83.978 Y55.812 E88.12544
G1 X45.602 Y94.188 E89.17267
G1 X45.237 Y94.188 E89.17971
G1 X83.613 Y55.812 E90.22694
G1 X83.248 Y55.812 E90.23398
G1 X44.873 Y94.188 E91.28120
G1 X44.508 Y94.188 E91.28824
G1 X82.884 Y55.812 E92.33547
G1 X82.519 Y55.812 E92.34251
G1 X44.143 Y94.188 E93.38974
G1 X44.012 Y94.188 E93.39227
G1 X44.012 Y93.954 E93.39677
G1 X82.154 Y55.812 E94.43763
G1 X81.790 Y55.812 E94.44467
G1 X44.012 Y93.590 E95.47557
G1 X44.012 Y93.225 E95.48261
G1 X81.425 Y55.812 E96.50357
G1 X81.060 Y55.812 E96.51060
G1 X44.012 Y92.860 E97.52161
