; generated by Slic3r 1.3.1-dev (Build (Unknown revision)) on 2020-06-18 at 12:40:16

; external perimeters extrusion width = 0.44mm (2.86mm^3/s)
; perimeters extrusion width = 0.56mm (4.14mm^3/s)
; infill extrusion width = 0.50mm (3.66mm^3/s)
; solid infill extrusion width = 0.56mm (3.10mm^3/s)
; top infill extrusion width = 0.45mm (2.44mm^3/s)

M107
G92 E0
;D3D:START:START
T0
M104 S215 T0

G21
G90
M107
T0
G28
G29
M109 T0 S215 T0
G0 F3000
M107
T0
G92 E0
G0 X0 Y149 Z0.1 F3600
G1 Y49 E6.5 F1200
G0 Z1
G92 E0
; Filament gcode

G21 ; set units to millimeters
G90 ; use absolute coordinates
M82 ; use absolute distances for extrusion
G92 E0
G1 Z0.200 F6000.000
G1 E-2.00000 F1200.00000
G92 E0
G1 Z0.700 F6000.000
G1 X39.974 Y49.341 F6000.000
G1 Z0.200 F6000.000
G1 E2.00000 F1200.00000
G1 F1800.000
G1 X43.200 Y48.486 E2.06421
G1 X106.800 Y48.486 E3.28779
G1 X109.039 Y48.883 E3.33154
G1 X111.005 Y50.025 E3.37529
G1 X112.459 Y51.774 E3.41904
G1 X113.314 Y55.000 E3.48324
G1 X113.314 Y95.000 E4.25279
G1 X112.917 Y97.239 E4.29654
G1 X111.775 Y99.205 E4.34029
G1 X110.026 Y100.659 E4.38404
G1 X106.800 Y101.514 E4.44825
G1 X43.200 Y101.514 E5.67182
G1 X40.961 Y101.117 E5.71557
G1 X38.995 Y99.975 E5.75932
G1 X37.541 Y98.226 E5.80307
G1 X36.686 Y95.000 E5.86728
G1 X36.686 Y55.000 E6.63683
G1 X37.083 Y52.761 E6.68058
G1 X38.225 Y50.795 E6.72433
G1 X39.928 Y49.379 E6.76692
G1 X40.219 Y49.499 F6000.000
G1 F1800.000
G1 X43.200 Y48.743 E6.82610
G1 X106.800 Y48.743 E8.04967
G1 X108.993 Y49.140 E8.09254
G1 X110.907 Y50.280 E8.13542
G1 X112.301 Y52.019 E8.17829
G1 X113.057 Y55.000 E8.23746
G1 X113.057 Y95.000 E9.00701
G1 X112.660 Y97.193 E9.04988
G1 X111.520 Y99.107 E9.09275
G1 X109.781 Y100.501 E9.13562
G1 X106.800 Y101.257 E9.19479
G1 X43.200 Y101.257 E10.41837
G1 X41.007 Y100.860 E10.46124
G1 X39.093 Y99.720 E10.50411
G1 X37.699 Y97.981 E10.54698
G1 X36.943 Y95.000 E10.60616
G1 X36.943 Y55.000 E11.37570
G1 X37.340 Y52.807 E11.41857
G1 X38.480 Y50.893 E11.46144
G1 X40.172 Y49.536 E11.50316
G1 E9.50316 F1200.00000
G92 E0
G1 Z0.700 F6000.000
G1 X97.170 Y90.920 F6000.000
G1 Z0.200 F6000.000
G1 E2.00000 F1200.00000
G1 F1800.000
G1 X97.170 Y85.747 E2.09953
G1 X101.650 Y83.160 E2.19905
G1 X106.130 Y85.747 E2.29857
G1 X106.130 Y90.920 E2.39810
G1 X101.650 Y93.507 E2.49762
G1 X97.222 Y90.950 E2.59600
G1 X96.770 Y90.920 F6000.000
G1 E0.59600 F1200.00000
G92 E0
G1 Z0.700 F6000.000
G1 X101.650 Y66.840 F6000.000
G1 Z0.200 F6000.000
G1 E2.00000 F1200.00000
G1 F1800.000
G1 X97.170 Y64.253 E2.09952
G1 X97.170 Y59.080 E2.19905
G1 X101.650 Y56.493 E2.29857
G1 X106.130 Y59.080 E2.39810
G1 X106.130 Y64.253 E2.49763
G1 X101.702 Y66.810 E2.59600
G1 X101.450 Y67.186 F6000.000
G1 E0.59600 F1200.00000
G92 E0
G1 Z0.700 F6000.000
G1 X65.344 Y85.450 F6000.000
G1 Z0.200 F6000.000
G1 E2.00000 F1200.00000
G1 F1800.000
G1 X65.344 Y91.217 E2.11095
G1 X60.350 Y94.100 E2.22189
G1 X55.356 Y91.217 E2.33284
G1 X55.356 Y85.450 E2.44379
G1 X60.350 Y82.566 E2.55474
G1 X65.292 Y85.420 E2.66453
G1 X65.087 Y85.598 F6000.000
G1 F1800.000
G1 X65.087 Y91.068 E2.76977
G1 X60.350 Y93.803 E2.87500
G1 X55.613 Y91.068 E2.98024
G1 X55.613 Y85.598 E3.08547
G1 X60.350 Y82.863 E3.19071
G1 X65.035 Y85.568 E3.29479
G1 X64.830 Y85.747 F6000.000
G1 F1800.000
G1 X64.830 Y90.920 E3.39432
G1 X60.350 Y93.507 E3.49384
G1 X55.870 Y90.920 E3.59337
G1 X55.870 Y85.747 E3.69289
G1 X60.350 Y83.160 E3.79242
G1 X64.778 Y85.717 E3.89079
G1 X65.230 Y85.747 F6000.000
G1 E1.89079 F1200.00000
G92 E0
G1 Z0.700 F6000.000
G1 X60.350 Y67.434 F6000.000
G1 Z0.200 F6000.000
G1 E2.00000 F1200.00000
G1 F1800.000
G1 X55.356 Y64.550 E2.11095
G1 X55.356 Y58.783 E2.22189
G1 X60.350 Y55.900 E2.33284
G1 X65.344 Y58.783 E2.44379
G1 X65.344 Y64.550 E2.55474
G1 X60.402 Y67.404 E2.66453
G1 X60.350 Y67.137 F6000.000
G1 F1800.000
G1 X55.613 Y64.402 E2.76977
G1 X55.613 Y58.932 E2.87500
G1 X60.350 Y56.197 E2.98024
G1 X65.087 Y58.932 E3.08547
G1 X65.087 Y64.402 E3.19071
G1 X60.402 Y67.107 E3.29479
G1 X60.350 Y66.840 F6000.000
G1 F1800.000
G1 X55.870 Y64.253 E3.39432
G1 X55.870 Y59.080 E3.49384
G1 X60.350 Y56.493 E3.59337
G1 X64.830 Y59.080 E3.69289
G1 X64.830 Y64.253 E3.79242
G1 X60.402 Y66.810 E3.89079
G1 X60.150 Y67.186 F6000.000
G1 E1.89079 F1200.00000
G92 E0
G1 Z0.700 F6000.000
G1 X96.656 Y64.550 F6000.000
G1 Z0.200 F6000.000
G1 E2.00000 F1200.00000
G1 F1800.000
G1 X101.650 Y67.434 E2.11095
G1 X106.136 Y64.844 E2.21060
G1 X106.136 Y85.156 E2.60139
G1 X101.650 Y82.566 E2.70104
G1 X96.656 Y85.450 E2.81198
G1 X96.656 Y91.217 E2.92293
G1 X101.650 Y94.100 E3.03388
G1 X106.136 Y91.510 E3.13353
G1 X106.136 Y94.336 E3.18789
G1 X43.864 Y94.336 E4.38591
G1 X43.864 Y55.664 E5.12990
G1 X106.136 Y55.664 E6.32793
G1 X106.136 Y58.490 E6.38229
G1 X101.650 Y55.900 E6.48194
G1 X96.656 Y58.783 E6.59289
G1 X96.656 Y64.490 E6.70268
G1 X96.913 Y64.402 F6000.000
G1 F1800.000
G1 X101.650 Y67.137 E6.80791
G1 X106.393 Y64.398 E6.91328
G1 X106.393 Y85.602 E7.32120
G1 X101.650 Y82.863 E7.42656
G1 X96.913 Y85.598 E7.53180
G1 X96.913 Y91.068 E7.63703
G1 X101.650 Y93.803 E7.74227
G1 X106.393 Y91.065 E7.84763
G1 X106.393 Y94.593 E7.91550
G1 X43.607 Y94.593 E9.12342
G1 X43.607 Y55.407 E9.87730
G1 X106.393 Y55.407 E11.08521
G1 X106.393 Y58.935 E11.15309
G1 X101.650 Y56.197 E11.25845
G1 X96.913 Y58.932 E11.36368
G1 X96.913 Y64.342 E11.46777
G1 E9.46777 F1200.00000
G92 E0
G1 Z0.700 F6000.000
G1 X106.650 Y55.150 F6000.000
G1 Z0.200 F6000.000
G1 E2.00000 F1200.00000
G1 F1800.000
G1 X106.650 Y94.850 E2.76377
G1 X43.350 Y94.850 E3.98158
G1 X43.350 Y55.150 E4.74535
G1 X106.590 Y55.150 E5.96200
G1 X106.518 Y55.528 F6000.000
G1 E3.96200 F1200.00000
G92 E0
G1 Z0.700 F6000.000
G1 X105.770 Y58.153 F6000.000
G1 Z0.200 F6000.000
G1 E2.00000 F1200.00000
G1 F1800.000
G1 X105.988 Y57.935 E2.00632
G1 X105.988 Y57.549 E2.01423
G1 X105.524 Y58.012 E2.02764
G1 X105.279 Y57.870 E2.03343
G1 X105.988 Y57.162 E2.05394
G1 X105.988 Y56.775 E2.06185
G1 X105.034 Y57.729 E2.08945
G1 X104.789 Y57.587 E2.09524
G1 X105.988 Y56.388 E2.12994
G1 X105.988 Y56.002 E2.13785
G1 X104.544 Y57.446 E2.17964
G1 X104.299 Y57.304 E2.18543
G1 X105.791 Y55.812 E2.22861
G1 X105.404 Y55.812 E2.23652
G1 X104.054 Y57.163 E2.27561
G1 X103.808 Y57.021 E2.28140
G1 X105.017 Y55.812 E2.31639
G1 X104.631 Y55.812 E2.32430
G1 X103.563 Y56.880 E2.35519
G1 X103.318 Y56.738 E2.36098
G1 X104.244 Y55.812 E2.38778
G1 X103.857 Y55.812 E2.39569
G1 X103.073 Y56.597 E2.41839
G1 X102.828 Y56.455 E2.42418
G1 X103.471 Y55.812 E2.44278
G1 X103.084 Y55.812 E2.45070
G1 X102.583 Y56.313 E2.46520
G1 X102.337 Y56.172 E2.47100
G1 X102.697 Y55.812 E2.48141
G1 X102.310 Y55.812 E2.48932
G1 X102.092 Y56.030 E2.49563
G1 E0.49563 F1200.00000
G92 E0
G1 Z0.700 F6000.000
G1 X106.390 Y59.082 F6000.000
G1 Z0.200 F6000.000
G1 E2.00000 F1200.00000
G1 F1800.000
G1 X106.390 Y64.252 E2.08508
G1 E0.08508 F1200.00000
G92 E0
G1 Z0.700 F6000.000
G1 X106.390 Y85.748 F6000.000
G1 Z0.200 F6000.000
G1 E2.00000 F1200.00000
G1 F1800.000
G1 X106.390 Y90.918 E2.08508
G1 E0.08508 F1200.00000
G92 E0
G1 Z0.700 F6000.000
G1 X105.770 Y94.188 F6000.000
G1 Z0.200 F6000.000
G1 E2.00000 F1200.00000
G1 F1800.000
G1 X105.988 Y93.970 E2.00601
G1 X105.988 Y93.602 E2.01316
G1 X105.402 Y94.188 E2.02929
G1 X105.034 Y94.188 E2.03644
G1 X105.988 Y93.234 E2.06269
G1 X105.988 Y92.866 E2.06985
G1 X104.666 Y94.188 E2.10621
G1 X104.299 Y94.188 E2.11337
G1 X105.988 Y92.499 E2.15985
G1 X105.988 Y92.131 E2.16701
G1 X103.931 Y94.188 E2.22361
G1 X103.563 Y94.188 E2.23077
G1 X105.791 Y91.960 E2.29207
G1 X104.921 Y92.463 E2.31162
G1 X103.195 Y94.188 E2.35910
G1 X102.828 Y94.188 E2.36626
G1 X104.051 Y92.965 E2.39991
G1 X103.181 Y93.467 E2.41946
G1 X102.460 Y94.188 E2.43930
G1 X102.092 Y94.188 E2.44645
G1 X102.311 Y93.970 E2.45246
G1 X100.990 Y94.188 F6000.000
G1 F1800.000
G1 X101.208 Y93.970 E2.45841
G1 X100.977 Y93.836 E2.46356
G1 X100.625 Y94.188 E2.47315
G1 X100.261 Y94.188 E2.48018
G1 X100.746 Y93.703 E2.49341
G1 X100.515 Y93.569 E2.49856
G1 X99.896 Y94.188 E2.51543
G1 X99.532 Y94.188 E2.52246
G1 X100.283 Y93.436 E2.54297
G1 X100.052 Y93.303 E2.54811
G1 X99.167 Y94.188 E2.57226
G1 X98.803 Y94.188 E2.57929
G1 X99.821 Y93.169 E2.60708
G1 X99.590 Y93.036 E2.61223
G1 X98.438 Y94.188 E2.64365
G1 X98.074 Y94.188 E2.65068
G1 X99.359 Y92.902 E2.68575
G1 X99.128 Y92.769 E2.69090
G1 X97.709 Y94.188 E2.72960
G1 X97.345 Y94.188 E2.73663
G1 X98.897 Y92.635 E2.77898
G1 X98.666 Y92.502 E2.78412
G1 X96.980 Y94.188 E2.83011
G1 X96.616 Y94.188 E2.83714
G1 X98.435 Y92.369 E2.88676
G1 X98.204 Y92.235 E2.89191
G1 X96.251 Y94.188 E2.94517
G1 X95.887 Y94.188 E2.95220
G1 X97.973 Y92.102 E3.00910
G1 X97.742 Y91.968 E3.01425
G1 X95.522 Y94.188 E3.07479
G1 X95.158 Y94.188 E3.08182
G1 X97.510 Y91.835 E3.14600
G1 X97.279 Y91.702 E3.15115
G1 X94.793 Y94.188 E3.21897
G1 X94.429 Y94.188 E3.22600
G1 X97.048 Y91.568 E3.29746
G1 X96.817 Y91.435 E3.30260
G1 X94.064 Y94.188 E3.37770
G1 X93.700 Y94.188 E3.38473
G1 X96.586 Y91.301 E3.46347
G1 X96.508 Y91.256 E3.46521
G1 X96.508 Y91.015 E3.46986
G1 X93.335 Y94.188 E3.55640
G1 X92.971 Y94.188 E3.56343
G1 X96.508 Y90.651 E3.65992
G1 X96.508 Y90.286 E3.66695
G1 X92.606 Y94.188 E3.77338
G1 X92.242 Y94.188 E3.78041
G1 X96.508 Y89.922 E3.89678
G1 X96.508 Y89.557 E3.90381
G1 X91.877 Y94.188 E4.03013
G1 X91.513 Y94.188 E4.03716
G1 X96.508 Y89.193 E4.17341
G1 X96.508 Y88.828 E4.18044
G1 X91.148 Y94.188 E4.32664
G1 X90.784 Y94.188 E4.33367
G1 X96.508 Y88.464 E4.48981
G1 X96.508 Y88.099 E4.49685
G1 X90.419 Y94.188 E4.66293
G1 X90.055 Y94.188 E4.66996
G1 X96.508 Y87.735 E4.84599
G1 X96.508 Y87.370 E4.85302
G1 X89.690 Y94.188 E5.03899
G1 X89.326 Y94.188 E5.04602
G1 X96.508 Y87.006 E5.24193
G1 X96.508 Y86.641 E5.24896
G1 X88.961 Y94.188 E5.45482
G1 X88.597 Y94.188 E5.46185
G1 X96.508 Y86.277 E5.67765
G1 X96.508 Y85.912 E5.68468
G1 X88.232 Y94.188 E5.91042
G1 X87.868 Y94.188 E5.91745
G1 X96.508 Y85.548 E6.15313
G1 X96.290 Y85.766 F6000.000
G1 F1800.000
G1 X96.290 Y85.410 E6.15998
G1 X97.130 Y84.925 E6.17871
G1 X105.988 Y76.068 E6.42032
G1 X105.988 Y76.432 E6.42735
G1 X97.993 Y84.427 E6.64544
G1 X98.855 Y83.929 E6.66465
G1 X105.988 Y76.797 E6.85921
G1 X105.988 Y77.161 E6.86624
G1 X99.717 Y83.431 E7.03728
G1 X100.580 Y82.934 E7.05649
G1 X105.988 Y77.526 E7.20401
G1 X105.988 Y77.890 E7.21104
G1 X101.442 Y82.436 E7.33503
G1 X101.541 Y82.379 E7.33722
G1 X101.746 Y82.497 E7.34178
G1 X105.988 Y78.255 E7.45750
G1 X105.988 Y78.619 E7.46453
G1 X101.977 Y82.630 E7.57395
G1 X102.208 Y82.764 E7.57909
G1 X105.988 Y78.984 E7.68221
G1 X105.988 Y79.348 E7.68924
G1 X102.439 Y82.897 E7.78604
G1 X102.670 Y83.030 E7.79119
G1 X105.988 Y79.713 E7.88170
G1 X105.988 Y80.077 E7.88873
G1 X102.901 Y83.164 E7.97293
G1 X103.132 Y83.297 E7.97808
G1 X105.988 Y80.442 E8.05597
G1 X105.988 Y80.806 E8.06300
G1 X103.363 Y83.431 E8.13460
G1 X103.594 Y83.564 E8.13975
G1 X105.988 Y81.171 E8.20504
G1 X105.988 Y81.535 E8.21207
G1 X103.825 Y83.698 E8.27105
G1 X104.056 Y83.831 E8.27620
G1 X105.988 Y81.900 E8.32889
G1 X105.988 Y82.264 E8.33592
G1 X104.288 Y83.964 E8.38230
G1 X104.519 Y84.098 E8.38744
G1 X105.988 Y82.629 E8.42752
G1 X105.988 Y82.993 E8.43455
G1 X104.750 Y84.231 E8.46833
G1 X104.981 Y84.365 E8.47347
G1 X105.988 Y83.358 E8.50094
G1 X105.988 Y83.722 E8.50797
G1 X105.212 Y84.498 E8.52914
G1 X105.443 Y84.631 E8.53429
G1 X105.988 Y84.087 E8.54915
G1 X105.988 Y84.451 E8.55618
G1 X105.674 Y84.765 E8.56474
G1 E6.56474 F1200.00000
G92 E0
G1 Z0.700 F6000.000
G1 X87.503 Y94.188 F6000.000
G1 Z0.200 F6000.000
G1 E2.00000 F1200.00000
G1 F1800.000
G1 X105.988 Y75.703 E2.50422
G1 X105.988 Y75.339 E2.51125
G1 X87.139 Y94.188 E3.02541
G1 X86.774 Y94.188 E3.03244
G1 X105.988 Y74.974 E3.55655
G1 X105.988 Y74.610 E3.56358
G1 X86.410 Y94.188 E4.09763
G1 X86.045 Y94.188 E4.10466
G1 X105.988 Y74.245 E4.64865
G1 X105.988 Y73.881 E4.65568
G1 X85.681 Y94.188 E5.20961
G1 X85.316 Y94.188 E5.21664
G1 X105.988 Y73.516 E5.78052
G1 X105.988 Y73.152 E5.78755
G1 X84.952 Y94.188 E6.36137
G1 X84.587 Y94.188 E6.36840
G1 X105.988 Y72.787 E6.95216
G1 X105.988 Y72.423 E6.95919
G1 X84.223 Y94.188 E7.55289
G1 X83.858 Y94.188 E7.55992
G1 X105.988 Y72.058 E8.16357
G1 X105.988 Y71.694 E8.17060
G1 X83.494 Y94.188 E8.78419
G1 X83.129 Y94.188 E8.79122
G1 X105.988 Y71.329 E9.41475
G1 X105.988 Y70.965 E9.42178
G1 X82.765 Y94.188 E10.05526
G1 X82.400 Y94.188 E10.06229
G1 X105.988 Y70.600 E10.70570
G1 X105.988 Y70.236 E10.71274
G1 X82.036 Y94.188 E11.36610
G1 X81.671 Y94.188 E11.37313
G1 X105.988 Y69.871 E12.03643
G1 X105.988 Y69.507 E12.04346
G1 X81.307 Y94.188 E12.71670
G1 X80.942 Y94.188 E12.72373
G1 X105.988 Y69.142 E13.40692
G1 X105.988 Y68.778 E13.41395
G1 X80.578 Y94.188 E14.10708
G1 X80.213 Y94.188 E14.11411
G1 X105.988 Y68.413 E14.81719
G1 X105.988 Y68.049 E14.82422
G1 X79.849 Y94.188 E15.53723
G1 X79.484 Y94.188 E15.54426
G1 X105.988 Y67.684 E16.26722
G1 X105.988 Y67.320 E16.27425
G1 X79.120 Y94.188 E17.00716
G1 X78.755 Y94.188 E17.01419
G1 X105.988 Y66.955 E17.75703
G1 X105.988 Y66.591 E17.76406
G1 X78.391 Y94.188 E18.51685
G1 X78.026 Y94.188 E18.52388
G1 X105.988 Y66.226 E19.28661
G1 X105.988 Y65.862 E19.29364
G1 X77.662 Y94.188 E20.06631
G1 X77.297 Y94.188 E20.07334
G1 X105.988 Y65.497 E20.85596
G1 X105.988 Y65.180 E20.86207
G1 X105.876 Y65.244 E20.86457
G1 X76.933 Y94.188 E21.65407
G1 X76.568 Y94.188 E21.66110
G1 X105.013 Y65.742 E22.43702
G1 X104.151 Y66.240 E22.45623
G1 X76.204 Y94.188 E23.21857
G1 X75.839 Y94.188 E23.22560
G1 X103.289 Y66.738 E23.97436
G1 X102.426 Y67.236 E23.99357
G1 X75.475 Y94.188 E24.72874
G1 X75.110 Y94.188 E24.73578
G1 X101.707 Y67.591 E25.46127
G1 X101.476 Y67.458 E25.46642
G1 X74.746 Y94.188 E26.19555
G1 X74.381 Y94.188 E26.20258
G1 X101.245 Y67.324 E26.93535
G1 X101.014 Y67.191 E26.94050
G1 X74.017 Y94.188 E27.67691
G1 X73.652 Y94.188 E27.68394
G1 X100.782 Y67.057 E28.42399
G1 X100.551 Y66.924 E28.42914
G1 X73.288 Y94.188 E29.17282
G1 X72.923 Y94.188 E29.17986
G1 X100.320 Y66.791 E29.92718
G1 X100.089 Y66.657 E29.93233
G1 X72.559 Y94.188 E30.68330
G1 X72.194 Y94.188 E30.69033
G1 X99.858 Y66.524 E31.44494
G1 X99.627 Y66.390 E31.45008
G1 X71.830 Y94.188 E32.20833
G1 X71.465 Y94.188 E32.21536
G1 X99.396 Y66.257 E32.97725
G1 X99.165 Y66.124 E32.98239
G1 X71.101 Y94.188 E33.74792
G1 X70.736 Y94.188 E33.75495
G1 X98.934 Y65.990 E34.52411
G1 X98.703 Y65.857 E34.52926
G1 X70.372 Y94.188 E35.30206
G1 X70.007 Y94.188 E35.30909
G1 X98.472 Y65.723 E36.08554
G1 X98.240 Y65.590 E36.09068
G1 X69.643 Y94.188 E36.87077
G1 X69.278 Y94.188 E36.87780
G1 X98.009 Y65.456 E37.66152
G1 X97.778 Y65.323 E37.66666
G1 X68.914 Y94.188 E38.45402
G1 X68.549 Y94.188 E38.46106
G1 X97.547 Y65.190 E39.25206
G1 X97.316 Y65.056 E39.25720
G1 X68.185 Y94.188 E40.05184
G1 X67.820 Y94.188 E40.05887
G1 X97.085 Y64.923 E40.85715
G1 X96.854 Y64.789 E40.86230
G1 X67.456 Y94.188 E41.66421
G1 X67.091 Y94.188 E41.67125
G1 X96.623 Y64.656 E42.47680
G1 X96.508 Y64.589 E42.47937
G1 X96.508 Y64.407 E42.48289
G1 X66.727 Y94.188 E43.29525
G1 X66.362 Y94.188 E43.30228
G1 X96.508 Y64.042 E44.12459
G1 X96.508 Y63.678 E44.13162
G1 X65.998 Y94.188 E44.96386
G1 X65.633 Y94.188 E44.97089
G1 X96.508 Y63.313 E45.81308
G1 X96.508 Y62.949 E45.82011
G1 X65.268 Y94.188 E46.67224
G1 X64.904 Y94.188 E46.67927
G1 X96.508 Y62.584 E47.54134
G1 X96.508 Y62.220 E47.54837
G1 X64.539 Y94.188 E48.42039
G1 X64.175 Y94.188 E48.42742
G1 X96.508 Y61.855 E49.30937
G1 X96.508 Y61.491 E49.31640
G1 X63.810 Y94.188 E50.20831
G1 X63.446 Y94.188 E50.21534
G1 X96.508 Y61.126 E51.11718
G1 X96.508 Y60.762 E51.12421
G1 X63.081 Y94.188 E52.03599
G1 X62.717 Y94.188 E52.04303
G1 X65.565 Y91.340 E52.12070
G1 X64.702 Y91.838 E52.13991
G1 X62.352 Y94.188 E52.20400
G1 X61.988 Y94.188 E52.21103
G1 X63.840 Y92.336 E52.26154
G1 X62.977 Y92.834 E52.28075
G1 X61.623 Y94.188 E52.31767
G1 X61.259 Y94.188 E52.32471
G1 X62.115 Y93.332 E52.34805
G1 X61.252 Y93.830 E52.36726
G1 X60.894 Y94.188 E52.37702
G1 X60.792 Y94.188 E52.37900
G1 X61.034 Y94.048 E52.38439
G1 X59.436 Y94.188 F6000.000
G1 F1800.000
G1 X59.747 Y93.877 E52.39287
G1 X59.516 Y93.744 E52.39802
G1 X59.072 Y94.188 E52.41013
G1 X58.707 Y94.188 E52.41717
