; generated by Slic3r 1.3.1-dev (Build 6eeea77) on 2020-06-12 at 19:04:11

; external perimeters extrusion width = 0.44mm (5.22mm^3/s)
; perimeters extrusion width = 0.56mm (7.54mm^3/s)
; infill extrusion width = 0.50mm (6.70mm^3/s)
; solid infill extrusion width = 0.56mm (3.77mm^3/s)
; top infill extrusion width = 0.45mm (2.97mm^3/s)

M107
G92 E0
;D3D:START:START
T0
M104 S215 T0

G21
G90
M107
T0
G28
G29
M109 T0 S215 T0
G0 F3000
M107
T0
G92 E0
G0 X0 Y149 Z0.1 F3600
G1 Y49 E6.5 F1200
G0 Z1
G92 E0
; Filament gcode

G21 ; set units to millimeters
G90 ; use absolute coordinates
M82 ; use absolute distances for extrusion
G92 E0
G1 Z0.200 F6000.000
G1 E-2.00000 F1200.00000
G92 E0
G1 Z0.700 F6000.000
G1 X65.038 Y70.499 F6000.000
G1 Z0.200 F6000.000
G1 E2.00000 F1200.00000
G1 F1800.000
G1 X65.626 Y70.012 E2.01502
G1 X66.271 Y69.603 E2.03004
G1 X66.635 Y69.417 E2.03807
G1 X67.335 Y69.140 E2.05288
G1 X68.105 Y68.942 E2.06852
G1 X68.863 Y68.847 E2.08354
G1 X69.627 Y68.847 E2.09856
G1 X70.415 Y68.946 E2.11420
G1 X71.155 Y69.136 E2.12922
G1 X71.865 Y69.417 E2.14424
G1 X72.229 Y69.603 E2.15227
G1 X72.874 Y70.012 E2.16729
G1 X73.462 Y70.499 E2.18231
G1 X73.751 Y70.788 E2.19033
G1 X74.238 Y71.376 E2.20536
G1 X74.647 Y72.021 E2.22038
G1 X74.833 Y72.385 E2.22840
G1 X75.110 Y73.085 E2.24322
G1 X75.308 Y73.855 E2.25885
G1 X75.403 Y74.613 E2.27388
G1 X75.403 Y75.377 E2.28890
G1 X75.365 Y75.783 E2.29692
G1 X75.224 Y76.523 E2.31174
G1 X75.110 Y76.915 E2.31977
G1 X74.833 Y77.615 E2.33458
G1 X74.647 Y77.979 E2.34261
G1 X74.238 Y78.624 E2.35763
G1 X73.751 Y79.212 E2.37265
G1 X73.462 Y79.501 E2.38068
G1 X72.874 Y79.988 E2.39570
G1 X72.229 Y80.397 E2.41072
G1 X71.865 Y80.583 E2.41875
G1 X71.165 Y80.860 E2.43356
G1 X70.395 Y81.058 E2.44920
G1 X69.637 Y81.153 E2.46422
G1 X68.863 Y81.153 E2.47944
G1 X68.105 Y81.058 E2.49447
G1 X67.707 Y80.969 E2.50249
G1 X66.990 Y80.736 E2.51731
G1 X66.616 Y80.574 E2.52533
G1 X65.956 Y80.211 E2.54015
G1 X65.618 Y79.981 E2.54818
G1 X65.038 Y79.501 E2.56299
G1 X64.749 Y79.212 E2.57102
G1 X64.262 Y78.624 E2.58604
G1 X63.853 Y77.979 E2.60106
G1 X63.667 Y77.615 E2.60909
G1 X63.390 Y76.915 E2.62390
G1 X63.192 Y76.145 E2.63954
G1 X63.097 Y75.387 E2.65456
G1 X63.097 Y74.623 E2.66958
G1 X63.135 Y74.217 E2.67761
G1 X63.276 Y73.477 E2.69242
G1 X63.390 Y73.085 E2.70045
G1 X63.667 Y72.385 E2.71526
G1 X63.853 Y72.021 E2.72329
G1 X64.262 Y71.376 E2.73831
G1 X64.749 Y70.788 E2.75333
G1 X64.995 Y70.541 E2.76018
G1 X65.211 Y70.689 F6000.000
G1 F1800.000
G1 X65.777 Y70.220 E2.77465
G1 X66.398 Y69.826 E2.78911
G1 X66.741 Y69.652 E2.79666
G1 X67.418 Y69.384 E2.81100
G1 X68.149 Y69.196 E2.82584
G1 X68.879 Y69.104 E2.84030
G1 X69.615 Y69.104 E2.85477
G1 X70.363 Y69.198 E2.86961
G1 X71.076 Y69.381 E2.88407
G1 X71.759 Y69.652 E2.89854
G1 X72.102 Y69.826 E2.90609
G1 X72.723 Y70.220 E2.92055
G1 X73.289 Y70.689 E2.93502
G1 X73.561 Y70.961 E2.94257
G1 X74.030 Y71.527 E2.95703
G1 X74.424 Y72.148 E2.97150
G1 X74.598 Y72.491 E2.97905
G1 X74.866 Y73.168 E2.99339
G1 X75.054 Y73.899 E3.00823
G1 X75.146 Y74.629 E3.02269
G1 X75.146 Y75.365 E3.03716
G1 X75.110 Y75.747 E3.04471
G1 X74.973 Y76.463 E3.05904
G1 X74.866 Y76.832 E3.06659
G1 X74.598 Y77.509 E3.08093
G1 X74.424 Y77.852 E3.08848
G1 X74.030 Y78.473 E3.10295
G1 X73.561 Y79.039 E3.11741
G1 X73.289 Y79.311 E3.12496
G1 X72.723 Y79.780 E3.13943
G1 X72.102 Y80.174 E3.15389
G1 X71.759 Y80.348 E3.16144
G1 X71.082 Y80.616 E3.17578
G1 X70.351 Y80.804 E3.19062
G1 X69.621 Y80.896 E3.20508
G1 X68.879 Y80.896 E3.21968
G1 X68.149 Y80.804 E3.23414
G1 X67.775 Y80.720 E3.24169
G1 X67.081 Y80.495 E3.25603
G1 X66.729 Y80.343 E3.26358
G1 X66.090 Y79.991 E3.27792
G1 X65.772 Y79.775 E3.28547
G1 X65.211 Y79.311 E3.29981
G1 X64.939 Y79.039 E3.30736
G1 X64.470 Y78.473 E3.32182
G1 X64.076 Y77.852 E3.33628
G1 X63.902 Y77.509 E3.34383
G1 X63.634 Y76.832 E3.35817
G1 X63.446 Y76.101 E3.37301
G1 X63.354 Y75.371 E3.38748
G1 X63.354 Y74.635 E3.40194
G1 X63.390 Y74.253 E3.40949
G1 X63.527 Y73.537 E3.42383
G1 X63.634 Y73.168 E3.43138
G1 X63.902 Y72.491 E3.44572
G1 X64.076 Y72.148 E3.45327
G1 X64.470 Y71.527 E3.46774
G1 X64.939 Y70.961 E3.48220
G1 X65.168 Y70.732 E3.48857
G1 X65.384 Y70.880 F6000.000
G1 F1800.000
G1 X65.929 Y70.429 E3.50248
G1 X66.526 Y70.050 E3.51639
G1 X66.846 Y69.887 E3.52346
G1 X67.502 Y69.627 E3.53732
G1 X68.194 Y69.449 E3.55137
G1 X68.895 Y69.361 E3.56528
G1 X69.602 Y69.361 E3.57918
G1 X70.311 Y69.450 E3.59323
G1 X70.996 Y69.626 E3.60714
G1 X71.654 Y69.887 E3.62105
G1 X71.974 Y70.050 E3.62812
G1 X72.571 Y70.429 E3.64203
G1 X73.116 Y70.880 E3.65594
G1 X73.370 Y71.134 E3.66301
G1 X73.821 Y71.679 E3.67692
G1 X74.200 Y72.276 E3.69083
G1 X74.363 Y72.596 E3.69790
G1 X74.623 Y73.252 E3.71176
G1 X74.801 Y73.944 E3.72581
G1 X74.889 Y74.645 E3.73971
G1 X74.889 Y75.352 E3.75362
G1 X74.855 Y75.710 E3.76070
G1 X74.723 Y76.403 E3.77456
G1 X74.623 Y76.748 E3.78163
G1 X74.363 Y77.404 E3.79549
G1 X74.200 Y77.724 E3.80257
G1 X73.821 Y78.321 E3.81647
G1 X73.370 Y78.866 E3.83038
G1 X73.116 Y79.120 E3.83745
G1 X72.571 Y79.571 E3.85136
G1 X71.974 Y79.950 E3.86527
G1 X71.654 Y80.113 E3.87234
G1 X70.998 Y80.373 E3.88621
G1 X70.306 Y80.551 E3.90025
G1 X69.605 Y80.639 E3.91416
G1 X68.895 Y80.639 E3.92811
G1 X68.194 Y80.551 E3.94202
G1 X67.843 Y80.472 E3.94910
G1 X67.172 Y80.254 E3.96296
G1 X66.842 Y80.111 E3.97003
G1 X66.224 Y79.772 E3.98389
G1 X65.927 Y79.570 E3.99097
G1 X65.384 Y79.120 E4.00483
G1 X65.130 Y78.866 E4.01190
G1 X64.679 Y78.321 E4.02581
G1 X64.300 Y77.724 E4.03972
G1 X64.137 Y77.404 E4.04679
G1 X63.877 Y76.748 E4.06065
G1 X63.699 Y76.056 E4.07470
G1 X63.611 Y75.355 E4.08861
G1 X63.611 Y74.648 E4.10251
G1 X63.645 Y74.290 E4.10959
G1 X63.777 Y73.597 E4.12345
G1 X63.877 Y73.252 E4.13052
G1 X64.137 Y72.596 E4.14438
G1 X64.300 Y72.276 E4.15146
G1 X64.679 Y71.679 E4.16537
G1 X65.130 Y71.134 E4.17927
G1 X65.341 Y70.922 E4.18517
G1 X65.297 Y70.489 F6000.000
G1 E2.18517 F1200.00000
G92 E0
G1 Z0.700 F6000.000
G1 X84.914 Y68.664 F6000.000
G1 Z0.200 F6000.000
G1 E2.00000 F1200.00000
G1 F1800.000
G1 X84.914 Y61.164 E2.14750
G1 X90.586 Y61.164 E2.25904
G1 X90.586 Y88.836 E2.80323
G1 X84.914 Y88.836 E2.91477
G1 X84.914 Y81.336 E3.06227
G1 X76.788 Y81.336 E3.22208
G1 X75.979 Y82.174 E3.24499
G1 X75.519 Y82.578 E3.25703
G1 X75.031 Y82.957 E3.26918
G1 X74.520 Y83.304 E3.28133
G1 X73.988 Y83.619 E3.29348
G1 X73.438 Y83.899 E3.30563
G1 X72.871 Y84.145 E3.31778
G1 X72.289 Y84.354 E3.32994
G1 X71.696 Y84.526 E3.34209
G1 X71.093 Y84.661 E3.35424
G1 X70.483 Y84.758 E3.36639
G1 X69.868 Y84.816 E3.37854
G1 X69.250 Y84.836 E3.39069
G1 X68.632 Y84.816 E3.40284
G1 X68.017 Y84.758 E3.41499
G1 X67.407 Y84.661 E3.42715
G1 X66.804 Y84.526 E3.43930
G1 X66.211 Y84.354 E3.45145
G1 X65.629 Y84.145 E3.46360
G1 X65.062 Y83.899 E3.47575
G1 X64.512 Y83.619 E3.48790
G1 X63.980 Y83.304 E3.50005
G1 X63.469 Y82.957 E3.51221
G1 X62.981 Y82.578 E3.52436
G1 X62.517 Y82.170 E3.53651
G1 X62.080 Y81.733 E3.54866
G1 X61.672 Y81.269 E3.56081
G1 X61.293 Y80.781 E3.57296
G1 X60.946 Y80.270 E3.58511
G1 X60.631 Y79.738 E3.59727
G1 X60.351 Y79.188 E3.60942
G1 X60.105 Y78.621 E3.62157
G1 X59.896 Y78.039 E3.63372
G1 X59.724 Y77.446 E3.64587
G1 X59.589 Y76.843 E3.65802
G1 X59.492 Y76.233 E3.67017
G1 X59.434 Y75.618 E3.68232
G1 X59.414 Y75.000 E3.69448
G1 X59.434 Y74.382 E3.70663
G1 X59.492 Y73.767 E3.71878
G1 X59.589 Y73.157 E3.73093
G1 X59.724 Y72.554 E3.74308
G1 X59.896 Y71.961 E3.75523
G1 X60.105 Y71.379 E3.76738
G1 X60.351 Y70.812 E3.77954
G1 X60.631 Y70.262 E3.79169
G1 X60.946 Y69.730 E3.80384
G1 X61.293 Y69.219 E3.81599
G1 X61.672 Y68.731 E3.82814
G1 X62.080 Y68.267 E3.84029
G1 X62.517 Y67.830 E3.85244
G1 X62.981 Y67.422 E3.86460
G1 X63.469 Y67.043 E3.87675
G1 X63.980 Y66.696 E3.88890
G1 X64.512 Y66.381 E3.90105
G1 X65.062 Y66.101 E3.91320
G1 X65.629 Y65.855 E3.92535
G1 X66.211 Y65.646 E3.93750
G1 X66.804 Y65.474 E3.94965
G1 X67.407 Y65.339 E3.96181
G1 X68.017 Y65.242 E3.97396
G1 X68.632 Y65.184 E3.98611
G1 X69.250 Y65.164 E3.99826
G1 X69.868 Y65.184 E4.01041
G1 X70.483 Y65.242 E4.02256
G1 X71.093 Y65.339 E4.03471
G1 X71.696 Y65.474 E4.04687
G1 X72.289 Y65.646 E4.05902
G1 X72.871 Y65.855 E4.07117
G1 X73.438 Y66.101 E4.08332
G1 X73.988 Y66.381 E4.09547
G1 X74.520 Y66.696 E4.10762
G1 X75.031 Y67.043 E4.11977
G1 X75.519 Y67.422 E4.13193
G1 X75.979 Y67.826 E4.14396
G1 X76.788 Y68.664 E4.16687
G1 X84.854 Y68.664 E4.32550
G1 X84.657 Y68.407 F6000.000
G1 F1800.000
G1 X84.657 Y60.907 E4.47300
G1 X90.843 Y60.907 E4.59465
G1 X90.843 Y89.093 E5.14896
G1 X84.657 Y89.093 E5.27061
G1 X84.657 Y81.593 E5.41811
G1 X76.897 Y81.593 E5.57072
G1 X76.156 Y82.360 E5.59168
G1 X75.683 Y82.777 E5.60408
G1 X75.182 Y83.165 E5.61655
G1 X74.658 Y83.522 E5.62902
G1 X74.112 Y83.844 E5.64149
G1 X73.547 Y84.132 E5.65396
G1 X72.965 Y84.384 E5.66643
G1 X72.369 Y84.599 E5.67890
G1 X71.760 Y84.776 E5.69137
G1 X71.141 Y84.914 E5.70384
G1 X70.515 Y85.013 E5.71631
G1 X69.884 Y85.073 E5.72877
G1 X69.250 Y85.093 E5.74124
G1 X68.616 Y85.073 E5.75371
G1 X67.985 Y85.013 E5.76618
G1 X67.359 Y84.914 E5.77865
G1 X66.740 Y84.776 E5.79112
G1 X66.131 Y84.599 E5.80359
G1 X65.535 Y84.384 E5.81606
G1 X64.953 Y84.132 E5.82853
G1 X64.388 Y83.844 E5.84100
G1 X63.842 Y83.522 E5.85347
G1 X63.318 Y83.165 E5.86593
G1 X62.817 Y82.777 E5.87840
G1 X62.341 Y82.357 E5.89087
G1 X61.893 Y81.909 E5.90334
G1 X61.473 Y81.433 E5.91581
G1 X61.085 Y80.932 E5.92828
G1 X60.728 Y80.408 E5.94075
G1 X60.406 Y79.862 E5.95322
G1 X60.118 Y79.297 E5.96569
G1 X59.866 Y78.715 E5.97816
G1 X59.651 Y78.119 E5.99063
G1 X59.474 Y77.510 E6.00310
G1 X59.336 Y76.891 E6.01556
G1 X59.237 Y76.265 E6.02803
G1 X59.177 Y75.634 E6.04050
G1 X59.157 Y75.000 E6.05297
G1 X59.177 Y74.366 E6.06544
G1 X59.237 Y73.735 E6.07791
G1 X59.336 Y73.109 E6.09038
G1 X59.474 Y72.490 E6.10285
G1 X59.651 Y71.881 E6.11532
G1 X59.866 Y71.285 E6.12779
G1 X60.118 Y70.703 E6.14026
G1 X60.406 Y70.138 E6.15272
G1 X60.728 Y69.592 E6.16519
G1 X61.085 Y69.068 E6.17766
G1 X61.473 Y68.567 E6.19013
G1 X61.893 Y68.091 E6.20260
G1 X62.341 Y67.643 E6.21507
G1 X62.817 Y67.223 E6.22754
G1 X63.318 Y66.835 E6.24001
G1 X63.842 Y66.478 E6.25248
G1 X64.388 Y66.156 E6.26495
G1 X64.953 Y65.868 E6.27742
G1 X65.535 Y65.616 E6.28989
G1 X66.131 Y65.401 E6.30235
G1 X66.740 Y65.224 E6.31482
G1 X67.359 Y65.086 E6.32729
G1 X67.985 Y64.987 E6.33976
G1 X68.616 Y64.927 E6.35223
G1 X69.250 Y64.907 E6.36470
G1 X69.884 Y64.927 E6.37717
G1 X70.515 Y64.987 E6.38964
G1 X71.141 Y65.086 E6.40211
G1 X71.760 Y65.224 E6.41458
G1 X72.369 Y65.401 E6.42705
G1 X72.965 Y65.616 E6.43951
G1 X73.547 Y65.868 E6.45198
G1 X74.112 Y66.156 E6.46445
G1 X74.658 Y66.478 E6.47692
G1 X75.182 Y66.835 E6.48939
G1 X75.683 Y67.223 E6.50186
G1 X76.156 Y67.640 E6.51426
G1 X76.897 Y68.407 E6.53522
G1 X84.597 Y68.407 E6.68666
G1 X84.400 Y68.150 F6000.000
G1 F1800.000
G1 X84.400 Y60.650 E6.83415
G1 X91.100 Y60.650 E6.96592
G1 X91.100 Y89.350 E7.53033
G1 X84.400 Y89.350 E7.66210
G1 X84.400 Y81.850 E7.80959
G1 X77.006 Y81.850 E7.95501
G1 X76.334 Y82.546 E7.97403
G1 X75.847 Y82.975 E7.98679
G1 X75.334 Y83.373 E7.99957
G1 X74.796 Y83.739 E8.01236
G1 X74.236 Y84.070 E8.02515
G1 X73.657 Y84.365 E8.03794
G1 X73.060 Y84.623 E8.05072
G1 X72.448 Y84.843 E8.06351
G1 X71.824 Y85.025 E8.07630
G1 X71.189 Y85.167 E8.08908
G1 X70.547 Y85.268 E8.10187
G1 X69.900 Y85.330 E8.11466
G1 X69.250 Y85.350 E8.12744
G1 X68.600 Y85.330 E8.14023
G1 X67.953 Y85.268 E8.15302
G1 X67.311 Y85.167 E8.16580
G1 X66.676 Y85.025 E8.17859
G1 X66.052 Y84.843 E8.19138
G1 X65.440 Y84.623 E8.20416
G1 X64.843 Y84.365 E8.21695
G1 X64.264 Y84.070 E8.22974
G1 X63.704 Y83.739 E8.24253
G1 X63.166 Y83.373 E8.25531
G1 X62.653 Y82.975 E8.26810
G1 X62.165 Y82.545 E8.28089
G1 X61.705 Y82.085 E8.29367
G1 X61.275 Y81.597 E8.30646
G1 X60.877 Y81.084 E8.31925
G1 X60.511 Y80.546 E8.33203
G1 X60.180 Y79.986 E8.34482
G1 X59.885 Y79.407 E8.35761
G1 X59.627 Y78.810 E8.37039
G1 X59.407 Y78.198 E8.38318
G1 X59.225 Y77.574 E8.39597
G1 X59.083 Y76.939 E8.40876
G1 X58.982 Y76.297 E8.42154
G1 X58.920 Y75.650 E8.43433
G1 X58.900 Y75.000 E8.44712
G1 X58.920 Y74.350 E8.45990
G1 X58.982 Y73.703 E8.47269
G1 X59.083 Y73.061 E8.48548
G1 X59.225 Y72.426 E8.49826
G1 X59.407 Y71.802 E8.51105
G1 X59.627 Y71.190 E8.52384
G1 X59.885 Y70.593 E8.53662
G1 X60.180 Y70.014 E8.54941
G1 X60.511 Y69.454 E8.56220
G1 X60.877 Y68.916 E8.57498
G1 X61.275 Y68.403 E8.58777
G1 X61.705 Y67.915 E8.60056
G1 X62.165 Y67.455 E8.61335
G1 X62.653 Y67.025 E8.62613
G1 X63.166 Y66.627 E8.63892
G1 X63.704 Y66.261 E8.65171
G1 X64.264 Y65.930 E8.66449
G1 X64.843 Y65.635 E8.67728
G1 X65.440 Y65.377 E8.69007
G1 X66.052 Y65.157 E8.70285
G1 X66.676 Y64.975 E8.71564
G1 X67.311 Y64.833 E8.72843
G1 X67.953 Y64.732 E8.74121
G1 X68.600 Y64.670 E8.75400
G1 X69.250 Y64.650 E8.76679
G1 X69.900 Y64.670 E8.77957
G1 X70.547 Y64.732 E8.79236
G1 X71.189 Y64.833 E8.80515
G1 X71.824 Y64.975 E8.81794
G1 X72.448 Y65.157 E8.83072
G1 X73.060 Y65.377 E8.84351
G1 X73.657 Y65.635 E8.85630
G1 X74.236 Y65.930 E8.86908
G1 X74.796 Y66.261 E8.88187
G1 X75.334 Y66.627 E8.89466
G1 X75.847 Y67.025 E8.90744
G1 X76.334 Y67.454 E8.92021
G1 X77.006 Y68.150 E8.93923
G1 X84.340 Y68.150 E9.08346
G1 X84.800 Y68.161 F6000.000
G1 X85.062 Y69.017 F6000.000
G1 F1800.000
G1 X90.438 Y63.641 E9.23361
G1 X90.438 Y63.276 E9.24082
G1 X85.062 Y68.652 E9.39097
G1 X85.062 Y68.287 E9.39818
G1 X90.438 Y62.911 E9.54833
G1 X90.438 Y62.546 E9.55554
G1 X85.062 Y67.922 E9.70569
G1 X85.062 Y67.556 E9.71290
G1 X90.438 Y62.181 E9.86306
G1 X90.438 Y61.816 E9.87027
G1 X85.062 Y67.191 E10.02042
G1 X85.062 Y66.826 E10.02763
G1 X90.438 Y61.450 E10.17778
G1 X90.438 Y61.312 E10.18051
G1 X90.211 Y61.312 E10.18499
G1 X85.062 Y66.461 E10.32881
G1 X85.062 Y66.096 E10.33602
G1 X89.846 Y61.312 E10.46963
G1 X89.481 Y61.312 E10.47685
G1 X85.062 Y65.731 E10.60026
G1 X85.062 Y65.366 E10.60748
G1 X89.116 Y61.312 E10.72070
G1 X88.751 Y61.312 E10.72791
G1 X85.062 Y65.001 E10.83093
G1 X85.062 Y64.635 E10.83814
G1 X88.385 Y61.312 E10.93096
G1 X88.020 Y61.312 E10.93818
G1 X85.062 Y64.270 E11.02080
G1 X85.062 Y63.905 E11.02801
G1 X87.655 Y61.312 E11.10044
G1 X87.290 Y61.312 E11.10765
G1 X85.062 Y63.540 E11.16988
G1 X85.062 Y63.175 E11.17709
G1 X86.925 Y61.312 E11.22912
G1 X86.560 Y61.312 E11.23633
G1 X85.062 Y62.810 E11.27817
G1 X85.062 Y62.445 E11.28538
G1 X86.195 Y61.312 E11.31701
G1 X85.830 Y61.312 E11.32422
G1 X85.062 Y62.080 E11.34566
G1 X85.062 Y61.714 E11.35287
G1 X85.464 Y61.312 E11.36411
G1 E9.36411 F1200.00000
G92 E0
G1 Z0.700 F6000.000
G1 X62.805 Y67.906 F6000.000
G1 Z0.200 F6000.000
G1 E2.00000 F1200.00000
G1 F1800.000
G1 X62.156 Y68.555 E2.01811
G1 X61.761 Y69.004 E2.02993
G1 X61.392 Y69.479 E2.04181
G1 X60.987 Y70.089 E2.05627
G1 X64.339 Y66.737 E2.14989
G1 X64.745 Y66.497 E2.15920
G1 X65.151 Y66.290 E2.16821
G1 X60.540 Y70.901 E2.29700
G1 X60.244 Y71.562 E2.31130
G1 X65.812 Y65.994 E2.46683
G1 X66.385 Y65.786 E2.47887
G1 X60.036 Y72.135 E2.65620
G1 X59.886 Y72.651 E2.66682
G1 X66.901 Y65.636 E2.86277
G1 X67.378 Y65.524 E2.87244
G1 X59.774 Y73.128 E3.08484
G1 X59.691 Y73.576 E3.09384
G1 X67.826 Y65.441 E3.32108
G1 X68.253 Y65.379 E3.32959
G1 X59.629 Y74.003 E3.57046
G1 X59.591 Y74.406 E3.57846
G1 X68.656 Y65.341 E3.83166
G1 X69.040 Y65.323 E3.83925
G1 X59.573 Y74.790 E4.10368
G1 X59.564 Y75.163 E4.11106
G1 X69.413 Y65.314 E4.38615
G1 X69.767 Y65.325 E4.39315
G1 X59.575 Y75.517 E4.67782
G1 X59.596 Y75.862 E4.68464
G1 X63.633 Y71.825 E4.79740
G1 X63.945 Y71.334 E4.80889
G1 X64.449 Y70.723 E4.82453
G1 X64.755 Y70.418 E4.83307
G1 X65.366 Y69.913 E4.84872
G1 X65.857 Y69.601 E4.86021
G1 X70.112 Y65.346 E4.97906
G1 X70.446 Y65.377 E4.98568
G1 X66.604 Y69.219 E5.09298
G1 X67.199 Y68.989 E5.10557
G1 X70.767 Y65.421 E5.20524
G1 X71.082 Y65.471 E5.21155
G1 X67.699 Y68.855 E5.30606
G1 X68.145 Y68.774 E5.31501
G1 X71.384 Y65.534 E5.40550
G1 X71.683 Y65.601 E5.41154
G1 X68.563 Y68.721 E5.49870
G1 X68.950 Y68.699 E5.50636
G1 X71.969 Y65.680 E5.59068
G1 X72.252 Y65.762 E5.59650
G1 X69.315 Y68.699 E5.67853
G1 X69.667 Y68.712 E5.68549
G1 X72.524 Y65.855 E5.76528
G1 X72.792 Y65.952 E5.77091
G1 X69.998 Y68.746 E5.84897
