; generated by Slic3r 1.3.1-dev (Build (Unknown revision)) on 2020-06-18 at 16:07:36

; external perimeters extrusion width = 0.44mm (2.86mm^3/s)
; perimeters extrusion width = 0.56mm (4.14mm^3/s)
; infill extrusion width = 0.50mm (3.66mm^3/s)
; solid infill extrusion width = 0.56mm (3.10mm^3/s)
; top infill extrusion width = 0.45mm (2.44mm^3/s)

M107
G92 E0
;D3D:START:START
T0
M104 S215 T0

G21
G90
M107
T0
G28
G29
M109 T0 S215 T0
G0 F3000
M107
T0
G92 E0
G0 X0 Y149 Z0.1 F3600
G1 Y49 E6.5 F1200
G0 Z1
G92 E0
; Filament gcode

G21 ; set units to millimeters
G90 ; use absolute coordinates
M82 ; use absolute distances for extrusion
G92 E0
G1 Z0.200 F6000.000
G1 E-2.00000 F1200.00000
G92 E0
G1 Z0.700 F6000.000
G1 X44.725 Y50.795 F6000.000
G1 Z0.200 F6000.000
G1 E2.00000 F1200.00000
G1 F1800.000
G1 X46.474 Y49.341 E2.04375
G1 X49.700 Y48.486 E2.10796
G1 X100.300 Y48.486 E3.08143
G1 X102.539 Y48.883 E3.12518
G1 X104.505 Y50.025 E3.16893
G1 X105.959 Y51.774 E3.21268
G1 X106.814 Y55.000 E3.27689
G1 X106.814 Y95.000 E4.04644
G1 X106.417 Y97.239 E4.09019
G1 X105.275 Y99.205 E4.13394
G1 X103.526 Y100.659 E4.17769
G1 X100.300 Y101.514 E4.24189
G1 X49.700 Y101.514 E5.21537
G1 X47.461 Y101.117 E5.25912
G1 X45.495 Y99.975 E5.30287
G1 X44.041 Y98.226 E5.34662
G1 X43.186 Y95.000 E5.41083
G1 X43.186 Y55.000 E6.18037
G1 X43.583 Y52.761 E6.22412
G1 X44.695 Y50.846 E6.26672
G1 X44.980 Y50.893 F6000.000
G1 F1800.000
G1 X46.719 Y49.499 E6.30959
G1 X49.700 Y48.743 E6.36876
G1 X100.300 Y48.743 E7.34224
G1 X102.493 Y49.140 E7.38511
G1 X104.407 Y50.280 E7.42798
G1 X105.801 Y52.019 E7.47085
G1 X106.557 Y55.000 E7.53002
G1 X106.557 Y95.000 E8.29957
G1 X106.160 Y97.193 E8.34244
G1 X105.020 Y99.107 E8.38531
G1 X103.281 Y100.501 E8.42818
G1 X100.300 Y101.257 E8.48736
G1 X49.700 Y101.257 E9.46083
G1 X47.507 Y100.860 E9.50370
G1 X45.593 Y99.720 E9.54657
G1 X44.199 Y97.981 E9.58944
G1 X43.443 Y95.000 E9.64862
G1 X43.443 Y55.000 E10.41816
G1 X43.840 Y52.807 E10.46103
G1 X44.949 Y50.944 E10.50275
G1 E8.50275 F1200.00000
G92 E0
G1 Z0.700 F6000.000
G1 X94.855 Y91.136 F6000.000
G1 Z0.200 F6000.000
G1 E2.00000 F1200.00000
G1 F1800.000
G1 X94.279 Y91.013 E2.01133
G1 X93.741 Y90.774 E2.02267
G1 X93.265 Y90.427 E2.03400
G1 X92.870 Y89.990 E2.04533
G1 X92.576 Y89.479 E2.05667
G1 X92.394 Y88.919 E2.06800
G1 X92.332 Y88.333 E2.07933
G1 X92.394 Y87.747 E2.09067
G1 X92.576 Y87.187 E2.10200
G1 X92.870 Y86.677 E2.11333
G1 X93.265 Y86.239 E2.12467
G1 X93.741 Y85.893 E2.13600
G1 X94.279 Y85.653 E2.14733
G1 X94.855 Y85.531 E2.15866
G1 X95.445 Y85.531 E2.17000
G1 X96.021 Y85.653 E2.18133
G1 X96.559 Y85.893 E2.19266
G1 X97.035 Y86.239 E2.20400
G1 X97.430 Y86.677 E2.21533
G1 X97.724 Y87.187 E2.22666
G1 X97.906 Y87.747 E2.23800
G1 X97.968 Y88.333 E2.24933
G1 X97.906 Y88.919 E2.26066
G1 X97.724 Y89.479 E2.27199
G1 X97.430 Y89.990 E2.28333
G1 X97.035 Y90.427 E2.29466
G1 X96.559 Y90.774 E2.30599
G1 X96.021 Y91.013 E2.31733
G1 X95.445 Y91.136 E2.32866
G1 X94.915 Y91.136 E2.33884
G1 X94.882 Y90.879 F6000.000
G1 F1800.000
G1 X94.359 Y90.767 E2.34913
G1 X93.870 Y90.550 E2.35943
G1 X93.438 Y90.235 E2.36972
G1 X93.079 Y89.838 E2.38001
G1 X92.812 Y89.374 E2.39031
G1 X92.647 Y88.865 E2.40060
G1 X92.591 Y88.333 E2.41090
G1 X92.647 Y87.801 E2.42119
G1 X92.812 Y87.292 E2.43148
G1 X93.079 Y86.829 E2.44178
G1 X93.438 Y86.431 E2.45207
G1 X93.870 Y86.117 E2.46236
G1 X94.359 Y85.899 E2.47266
G1 X94.882 Y85.788 E2.48295
G1 X95.418 Y85.788 E2.49324
G1 X95.941 Y85.899 E2.50354
G1 X96.430 Y86.117 E2.51383
G1 X96.862 Y86.431 E2.52412
G1 X97.221 Y86.829 E2.53442
G1 X97.488 Y87.292 E2.54471
G1 X97.653 Y87.801 E2.55500
G1 X97.709 Y88.333 E2.56530
G1 X97.653 Y88.865 E2.57559
G1 X97.488 Y89.374 E2.58588
G1 X97.221 Y89.838 E2.59618
G1 X96.862 Y90.235 E2.60647
G1 X96.430 Y90.550 E2.61676
G1 X95.941 Y90.767 E2.62706
G1 X95.418 Y90.879 E2.63735
G1 X94.942 Y90.879 E2.64649
G1 X94.910 Y90.622 F6000.000
G1 F1800.000
G1 X94.439 Y90.522 E2.65575
G1 X94.000 Y90.326 E2.66500
G1 X93.610 Y90.043 E2.67425
G1 X93.289 Y89.686 E2.68351
G1 X93.048 Y89.269 E2.69276
G1 X92.899 Y88.812 E2.70202
G1 X92.849 Y88.333 E2.71127
G1 X92.899 Y87.855 E2.72052
G1 X93.048 Y87.397 E2.72978
G1 X93.289 Y86.981 E2.73903
G1 X93.610 Y86.624 E2.74828
G1 X94.000 Y86.341 E2.75754
G1 X94.439 Y86.145 E2.76679
G1 X94.910 Y86.045 E2.77605
G1 X95.390 Y86.045 E2.78530
G1 X95.861 Y86.145 E2.79455
G1 X96.300 Y86.341 E2.80381
G1 X96.690 Y86.624 E2.81306
G1 X97.011 Y86.981 E2.82231
G1 X97.252 Y87.397 E2.83157
G1 X97.401 Y87.855 E2.84082
G1 X97.451 Y88.333 E2.85007
G1 X97.401 Y88.812 E2.85933
G1 X97.252 Y89.269 E2.86858
G1 X97.011 Y89.686 E2.87784
G1 X96.690 Y90.043 E2.88709
G1 X96.300 Y90.326 E2.89634
G1 X95.861 Y90.522 E2.90560
G1 X95.390 Y90.622 E2.91485
G1 X94.970 Y90.622 E2.92295
G1 X94.674 Y90.945 F6000.000
G1 E0.92295 F1200.00000
G92 E0
G1 Z0.700 F6000.000
G1 X94.855 Y64.469 F6000.000
G1 Z0.200 F6000.000
G1 E2.00000 F1200.00000
G1 F1800.000
G1 X94.279 Y64.347 E2.01133
G1 X93.741 Y64.107 E2.02267
G1 X93.265 Y63.761 E2.03400
G1 X92.870 Y63.323 E2.04533
G1 X92.576 Y62.813 E2.05666
G1 X92.394 Y62.253 E2.06800
G1 X92.332 Y61.667 E2.07933
G1 X92.394 Y61.081 E2.09066
G1 X92.576 Y60.521 E2.10200
G1 X92.870 Y60.010 E2.11333
G1 X93.265 Y59.573 E2.12467
G1 X93.741 Y59.226 E2.13600
G1 X94.279 Y58.987 E2.14733
G1 X94.855 Y58.864 E2.15866
G1 X95.445 Y58.864 E2.17000
G1 X96.021 Y58.987 E2.18133
G1 X96.559 Y59.226 E2.19266
G1 X97.035 Y59.573 E2.20400
G1 X97.430 Y60.010 E2.21533
G1 X97.724 Y60.521 E2.22666
G1 X97.906 Y61.081 E2.23800
G1 X97.968 Y61.667 E2.24933
G1 X97.906 Y62.253 E2.26066
G1 X97.724 Y62.813 E2.27200
G1 X97.430 Y63.323 E2.28333
G1 X97.035 Y63.761 E2.29466
G1 X96.559 Y64.107 E2.30599
G1 X96.021 Y64.347 E2.31733
G1 X95.445 Y64.469 E2.32866
G1 X94.915 Y64.469 E2.33884
G1 X94.882 Y64.212 F6000.000
G1 F1800.000
G1 X94.359 Y64.101 E2.34913
G1 X93.870 Y63.883 E2.35943
G1 X93.438 Y63.569 E2.36972
G1 X93.079 Y63.171 E2.38001
G1 X92.812 Y62.708 E2.39031
G1 X92.647 Y62.199 E2.40060
G1 X92.591 Y61.667 E2.41089
G1 X92.647 Y61.135 E2.42119
G1 X92.812 Y60.626 E2.43148
G1 X93.079 Y60.162 E2.44178
G1 X93.438 Y59.765 E2.45207
G1 X93.870 Y59.450 E2.46236
G1 X94.359 Y59.233 E2.47266
G1 X94.882 Y59.121 E2.48295
G1 X95.418 Y59.121 E2.49324
G1 X95.941 Y59.233 E2.50354
G1 X96.430 Y59.450 E2.51383
G1 X96.862 Y59.765 E2.52412
G1 X97.221 Y60.162 E2.53442
G1 X97.488 Y60.626 E2.54471
G1 X97.653 Y61.135 E2.55500
G1 X97.709 Y61.667 E2.56530
G1 X97.653 Y62.199 E2.57559
G1 X97.488 Y62.708 E2.58589
G1 X97.221 Y63.171 E2.59618
G1 X96.862 Y63.569 E2.60647
G1 X96.430 Y63.883 E2.61676
G1 X95.941 Y64.101 E2.62706
G1 X95.418 Y64.212 E2.63735
G1 X94.942 Y64.212 E2.64649
G1 X94.910 Y63.955 F6000.000
G1 F1800.000
G1 X94.439 Y63.855 E2.65575
G1 X94.000 Y63.659 E2.66500
G1 X93.610 Y63.376 E2.67425
G1 X93.289 Y63.019 E2.68351
G1 X93.048 Y62.603 E2.69276
G1 X92.899 Y62.145 E2.70201
G1 X92.849 Y61.667 E2.71127
G1 X92.899 Y61.188 E2.72052
G1 X93.048 Y60.731 E2.72977
G1 X93.289 Y60.314 E2.73903
G1 X93.610 Y59.957 E2.74828
G1 X94.000 Y59.674 E2.75754
G1 X94.439 Y59.478 E2.76679
G1 X94.910 Y59.378 E2.77605
G1 X95.390 Y59.378 E2.78530
G1 X95.861 Y59.478 E2.79455
G1 X96.300 Y59.674 E2.80381
G1 X96.690 Y59.957 E2.81306
G1 X97.011 Y60.314 E2.82231
G1 X97.252 Y60.731 E2.83157
G1 X97.401 Y61.188 E2.84082
G1 X97.451 Y61.667 E2.85008
G1 X97.401 Y62.145 E2.85933
G1 X97.252 Y62.603 E2.86858
G1 X97.011 Y63.019 E2.87784
G1 X96.690 Y63.376 E2.88709
G1 X96.300 Y63.659 E2.89634
G1 X95.861 Y63.855 E2.90560
G1 X95.390 Y63.955 E2.91485
G1 X94.970 Y63.955 E2.92295
G1 X94.674 Y64.278 F6000.000
G1 E0.92295 F1200.00000
G92 E0
G1 Z0.700 F6000.000
G1 X56.668 Y61.667 F6000.000
G1 Z0.200 F6000.000
G1 E2.00000 F1200.00000
G1 F1800.000
G1 X56.606 Y62.253 E2.01133
G1 X56.424 Y62.813 E2.02267
G1 X56.130 Y63.323 E2.03400
G1 X55.735 Y63.761 E2.04533
G1 X55.259 Y64.107 E2.05667
G1 X54.721 Y64.347 E2.06800
G1 X54.145 Y64.469 E2.07933
G1 X53.555 Y64.469 E2.09067
G1 X52.979 Y64.347 E2.10200
G1 X52.441 Y64.107 E2.11333
G1 X51.965 Y63.761 E2.12466
G1 X51.570 Y63.323 E2.13600
G1 X51.276 Y62.813 E2.14733
G1 X51.094 Y62.253 E2.15866
G1 X51.032 Y61.667 E2.17000
G1 X51.094 Y61.081 E2.18133
G1 X51.276 Y60.521 E2.19266
G1 X51.570 Y60.010 E2.20400
G1 X51.965 Y59.573 E2.21533
G1 X52.441 Y59.226 E2.22666
G1 X52.979 Y58.987 E2.23800
G1 X53.555 Y58.864 E2.24933
G1 X54.145 Y58.864 E2.26066
G1 X54.721 Y58.987 E2.27200
G1 X55.259 Y59.226 E2.28333
G1 X55.735 Y59.573 E2.29466
G1 X56.130 Y60.010 E2.30599
G1 X56.424 Y60.521 E2.31733
G1 X56.606 Y61.081 E2.32866
G1 X56.662 Y61.607 E2.33884
G1 X56.409 Y61.667 F6000.000
G1 F1800.000
G1 X56.353 Y62.199 E2.34913
G1 X56.188 Y62.708 E2.35943
G1 X55.921 Y63.171 E2.36972
G1 X55.563 Y63.569 E2.38001
G1 X55.130 Y63.883 E2.39031
G1 X54.641 Y64.101 E2.40060
G1 X54.118 Y64.212 E2.41089
G1 X53.582 Y64.212 E2.42119
G1 X53.059 Y64.101 E2.43148
G1 X52.570 Y63.883 E2.44178
G1 X52.137 Y63.569 E2.45207
G1 X51.779 Y63.171 E2.46236
G1 X51.512 Y62.708 E2.47265
G1 X51.347 Y62.199 E2.48295
G1 X51.291 Y61.667 E2.49324
G1 X51.347 Y61.135 E2.50354
G1 X51.512 Y60.626 E2.51383
G1 X51.779 Y60.162 E2.52412
G1 X52.137 Y59.765 E2.53442
G1 X52.570 Y59.450 E2.54471
G1 X53.059 Y59.233 E2.55500
G1 X53.582 Y59.121 E2.56530
G1 X54.118 Y59.121 E2.57559
G1 X54.641 Y59.233 E2.58589
G1 X55.130 Y59.450 E2.59618
G1 X55.563 Y59.765 E2.60647
G1 X55.921 Y60.162 E2.61676
G1 X56.188 Y60.626 E2.62706
G1 X56.353 Y61.135 E2.63735
G1 X56.403 Y61.607 E2.64649
G1 X56.151 Y61.667 F6000.000
G1 F1800.000
G1 X56.101 Y62.145 E2.65575
G1 X55.952 Y62.603 E2.66500
G1 X55.711 Y63.019 E2.67425
G1 X55.390 Y63.376 E2.68351
G1 X55.000 Y63.659 E2.69276
G1 X54.561 Y63.855 E2.70201
G1 X54.091 Y63.955 E2.71127
G1 X53.609 Y63.955 E2.72052
G1 X53.139 Y63.855 E2.72978
G1 X52.700 Y63.659 E2.73903
G1 X52.310 Y63.376 E2.74828
G1 X51.989 Y63.019 E2.75754
G1 X51.748 Y62.603 E2.76679
G1 X51.599 Y62.145 E2.77604
G1 X51.549 Y61.667 E2.78530
G1 X51.599 Y61.188 E2.79455
G1 X51.748 Y60.731 E2.80381
G1 X51.989 Y60.314 E2.81306
G1 X52.310 Y59.957 E2.82231
G1 X52.700 Y59.674 E2.83157
G1 X53.139 Y59.478 E2.84082
G1 X53.609 Y59.378 E2.85008
G1 X54.091 Y59.378 E2.85933
G1 X54.561 Y59.478 E2.86858
G1 X55.000 Y59.674 E2.87784
G1 X55.390 Y59.957 E2.88709
G1 X55.711 Y60.314 E2.89635
G1 X55.952 Y60.731 E2.90560
G1 X56.101 Y61.188 E2.91485
G1 X56.145 Y61.607 E2.92295
G1 X56.497 Y61.867 F6000.000
G1 E0.92295 F1200.00000
G92 E0
G1 Z0.700 F6000.000
G1 X54.145 Y85.531 F6000.000
G1 Z0.200 F6000.000
G1 E2.00000 F1200.00000
G1 F1800.000
G1 X54.721 Y85.653 E2.01133
G1 X55.259 Y85.893 E2.02267
G1 X55.735 Y86.239 E2.03400
G1 X56.130 Y86.677 E2.04533
G1 X56.424 Y87.187 E2.05666
G1 X56.606 Y87.747 E2.06800
G1 X56.668 Y88.333 E2.07933
G1 X56.606 Y88.919 E2.09066
G1 X56.424 Y89.479 E2.10200
G1 X56.130 Y89.990 E2.11333
G1 X55.735 Y90.427 E2.12466
G1 X55.259 Y90.774 E2.13600
G1 X54.721 Y91.013 E2.14733
G1 X54.145 Y91.136 E2.15866
G1 X53.555 Y91.136 E2.17000
G1 X52.979 Y91.013 E2.18133
G1 X52.441 Y90.774 E2.19266
G1 X51.965 Y90.427 E2.20400
G1 X51.570 Y89.990 E2.21533
G1 X51.276 Y89.479 E2.22666
G1 X51.094 Y88.919 E2.23800
G1 X51.032 Y88.333 E2.24933
G1 X51.094 Y87.747 E2.26066
G1 X51.276 Y87.187 E2.27200
G1 X51.570 Y86.677 E2.28333
G1 X51.965 Y86.239 E2.29466
G1 X52.441 Y85.893 E2.30600
G1 X52.979 Y85.653 E2.31733
G1 X53.555 Y85.531 E2.32866
G1 X54.085 Y85.531 E2.33884
G1 X54.118 Y85.788 F6000.000
G1 F1800.000
G1 X54.641 Y85.899 E2.34913
G1 X55.130 Y86.117 E2.35943
G1 X55.563 Y86.431 E2.36972
G1 X55.921 Y86.829 E2.38001
G1 X56.188 Y87.292 E2.39031
G1 X56.353 Y87.801 E2.40060
G1 X56.409 Y88.333 E2.41089
G1 X56.353 Y88.865 E2.42119
G1 X56.188 Y89.374 E2.43148
G1 X55.921 Y89.838 E2.44178
G1 X55.563 Y90.235 E2.45207
G1 X55.130 Y90.550 E2.46236
G1 X54.641 Y90.767 E2.47266
G1 X54.118 Y90.879 E2.48295
G1 X53.582 Y90.879 E2.49324
G1 X53.059 Y90.767 E2.50354
G1 X52.570 Y90.550 E2.51383
G1 X52.137 Y90.235 E2.52412
G1 X51.779 Y89.838 E2.53442
G1 X51.512 Y89.374 E2.54471
G1 X51.347 Y88.865 E2.55501
G1 X51.291 Y88.333 E2.56530
G1 X51.347 Y87.801 E2.57559
G1 X51.512 Y87.292 E2.58589
G1 X51.779 Y86.829 E2.59618
G1 X52.137 Y86.431 E2.60647
G1 X52.570 Y86.117 E2.61677
G1 X53.059 Y85.899 E2.62706
G1 X53.582 Y85.788 E2.63735
G1 X54.058 Y85.788 E2.64649
G1 X54.091 Y86.045 F6000.000
G1 F1800.000
G1 X54.561 Y86.145 E2.65575
G1 X55.000 Y86.341 E2.66500
G1 X55.390 Y86.624 E2.67425
G1 X55.711 Y86.981 E2.68351
G1 X55.952 Y87.397 E2.69276
G1 X56.101 Y87.855 E2.70201
G1 X56.151 Y88.333 E2.71127
G1 X56.101 Y88.812 E2.72052
G1 X55.952 Y89.269 E2.72978
G1 X55.711 Y89.686 E2.73903
G1 X55.390 Y90.043 E2.74828
G1 X55.000 Y90.326 E2.75754
G1 X54.561 Y90.522 E2.76679
G1 X54.091 Y90.622 E2.77605
G1 X53.609 Y90.622 E2.78530
G1 X53.139 Y90.522 E2.79455
G1 X52.700 Y90.326 E2.80381
G1 X52.310 Y90.043 E2.81306
G1 X51.989 Y89.686 E2.82232
G1 X51.748 Y89.269 E2.83157
G1 X51.599 Y88.812 E2.84082
G1 X51.549 Y88.333 E2.85008
G1 X51.599 Y87.855 E2.85933
G1 X51.748 Y87.397 E2.86859
G1 X51.989 Y86.981 E2.87784
G1 X52.310 Y86.624 E2.88709
G1 X52.700 Y86.341 E2.89635
G1 X53.139 Y86.145 E2.90560
G1 X53.609 Y86.045 E2.91485
G1 X54.031 Y86.045 E2.92295
G1 X54.326 Y85.722 F6000.000
G1 E0.92295 F1200.00000
G92 E0
G1 Z0.700 F6000.000
G1 X50.364 Y94.336 F6000.000
G1 Z0.200 F6000.000
G1 E2.00000 F1200.00000
G1 F1800.000
G1 X50.364 Y55.664 E2.74399
G1 X99.636 Y55.664 E3.69191
G1 X99.636 Y94.336 E4.43590
G1 X50.424 Y94.336 E5.38267
G1 X50.107 Y94.593 F6000.000
G1 F1800.000
G1 X50.107 Y55.407 E6.13655
G1 X99.893 Y55.407 E7.09436
G1 X99.893 Y94.593 E7.84824
G1 X50.167 Y94.593 E8.80490
G1 X49.850 Y94.850 F6000.000
G1 F1800.000
G1 X49.850 Y55.150 E9.56867
G1 X100.150 Y55.150 E10.53638
G1 X100.150 Y94.850 E11.30015
G1 X49.910 Y94.850 E12.26670
G1 X49.969 Y94.468 F6000.000
G1 E10.26670 F1200.00000
G92 E0
G1 Z0.700 F6000.000
G1 X51.120 Y87.061 F6000.000
G1 Z0.200 F6000.000
G1 E2.00000 F1200.00000
G1 F1800.000
G1 X50.512 Y87.669 E2.01655
G1 X50.512 Y88.033 E2.02354
G1 X50.949 Y87.596 E2.03543
G1 X50.906 Y88.002 E2.04329
G1 X50.512 Y88.396 E2.05401
G1 X50.512 Y88.760 E2.06101
G1 X50.898 Y88.374 E2.07152
G1 X50.933 Y88.703 E2.07789
G1 X50.512 Y89.124 E2.08935
G1 X50.512 Y89.487 E2.09634
G1 X50.996 Y89.004 E2.10950
G1 X51.085 Y89.278 E2.11505
G1 X50.512 Y89.851 E2.13063
G1 X50.512 Y90.215 E2.13763
G1 X51.186 Y89.541 E2.15598
G1 X51.319 Y89.771 E2.16110
G1 X50.512 Y90.578 E2.18307
G1 X50.512 Y90.942 E2.19007
G1 X51.452 Y90.002 E2.21566
G1 X51.620 Y90.198 E2.22062
G1 X50.512 Y91.306 E2.25076
G1 X50.512 Y91.669 E2.25776
G1 X51.792 Y90.390 E2.29259
G1 X51.901 Y90.510 E2.29572
G1 X51.978 Y90.567 E2.29756
G1 X50.512 Y92.033 E2.33746
G1 X50.512 Y92.397 E2.34446
G1 X52.189 Y90.720 E2.39009
G1 X52.400 Y90.873 E2.39510
G1 X50.512 Y92.760 E2.44647
G1 X50.512 Y93.124 E2.45347
G1 X52.647 Y90.989 E2.51157
G1 X52.899 Y91.101 E2.51687
G1 X50.512 Y93.488 E2.58181
G1 X50.512 Y93.851 E2.58881
G1 X53.177 Y91.186 E2.66135
G1 X53.477 Y91.250 E2.66725
G1 X50.539 Y94.188 E2.74721
G1 X50.903 Y94.188 E2.75421
G1 X53.807 Y91.284 E2.83324
G1 X54.171 Y91.284 E2.84024
G1 X51.267 Y94.188 E2.91927
G1 X51.630 Y94.188 E2.92627
G1 X54.603 Y91.215 E3.00717
G1 X54.910 Y91.150 E3.01321
G1 X55.130 Y91.052 E3.01784
G1 X51.994 Y94.188 E3.10318
G1 X52.358 Y94.188 E3.11018
G1 X90.733 Y55.812 E4.15455
G1 X91.097 Y55.812 E4.16155
G1 X52.721 Y94.188 E5.20593
G1 X53.085 Y94.188 E5.21293
G1 X91.461 Y55.812 E6.25731
G1 X91.824 Y55.812 E6.26431
G1 X53.448 Y94.188 E7.30868
G1 X53.812 Y94.188 E7.31568
G1 X92.188 Y55.812 E8.36006
G1 X92.552 Y55.812 E8.36706
G1 X54.176 Y94.188 E9.41144
G1 X54.539 Y94.188 E9.41843
G1 X92.915 Y55.812 E10.46281
G1 X93.279 Y55.812 E10.46981
G1 X54.903 Y94.188 E11.51419
G1 X55.267 Y94.188 E11.52119
G1 X93.643 Y55.812 E12.56556
G1 X94.006 Y55.812 E12.57256
G1 X55.630 Y94.188 E13.61694
G1 X55.994 Y94.188 E13.62394
G1 X94.370 Y55.812 E14.66832
G1 X94.733 Y55.812 E14.67532
G1 X56.358 Y94.188 E15.71969
G1 X56.721 Y94.188 E15.72669
G1 X95.097 Y55.812 E16.77107
G1 X95.461 Y55.812 E16.77807
G1 X57.085 Y94.188 E17.82245
G1 X57.449 Y94.188 E17.82944
G1 X95.824 Y55.812 E18.87382
